;FLAVOR:Marlin
;TIME:3195
;Filament used: 3.83378m
;Layer height: 0.3
;MINX:95.126
;MINY:89.698
;MINZ:0.2
;MAXX:154.79
;MAXY:120.986
;MAXZ:47.9
;Generated with Cura_SteamEngine 4.4.0
M82 ;absolute extrusion mode
G21 ; set units to millimeters
G90 ; use absolute positioning
M82 ; absolute extrusion mode
M104 S200 ; set extruder temp
M140 S60 ; set bed temp
M190 S60 ; wait for bed temp
M109 S200 ; wait for extruder temp
G28 W ; home all without mesh bed level
G80 ; mesh bed leveling
G92 E0.0 ; reset extruder distance position
G1 Y-3.0 F1000.0 ; go outside print area
G1 X60.0 E9.0 F1000.0 ; intro line
G1 X100.0 E21.5 F1000.0 ; intro line
G92 E0.0 ; reset extruder distance position
G92 E0
G92 E0
G1 F2100 E-0.8
;LAYER_COUNT:160
;LAYER:0
M107
G0 F3600 X96.773 Y96.078 Z0.2
;TYPE:SKIRT
G1 F2100 E0
G1 F1800 X97.013 Y95.853 E0.01094
G1 X97.224 Y95.671 E0.02021
G1 X97.589 Y95.392 E0.03549
G1 X97.795 Y95.252 E0.04377
G1 X98.283 Y94.968 E0.06255
G1 X98.711 Y94.788 E0.078
G1 X99.113 Y94.646 E0.09218
G1 X99.631 Y94.502 E0.11006
G1 X99.838 Y94.459 E0.11709
G1 X100.32 Y94.389 E0.13329
G1 X100.813 Y94.348 E0.14974
G1 X100.875 Y94.343 E0.15181
G1 X101.969 Y94.269 E0.18828
G1 X101.996 Y94.267 E0.18918
G1 X123.331 Y92.971 E0.9001
G1 X123.393 Y92.968 E0.90216
G1 X124.189 Y92.932 E0.92866
G1 X124.327 Y92.928 E0.93325
G1 X125.165 Y92.919 E0.96113
G1 X125.332 Y92.921 E0.96668
G1 X126.008 Y92.942 E0.98918
G1 X126.165 Y92.95 E0.99441
G1 X126.69 Y92.987 E1.01191
G1 X126.845 Y93.001 E1.01709
G1 X127.42 Y93.064 E1.03633
G1 X127.576 Y93.084 E1.04156
G1 X128.017 Y93.15 E1.05639
G1 X128.161 Y93.174 E1.06124
G1 X128.92 Y93.316 E1.08693
G1 X129.073 Y93.348 E1.09213
G1 X129.402 Y93.423 E1.10335
G1 X129.547 Y93.459 E1.10832
G1 X130.354 Y93.675 E1.1361
G1 X130.492 Y93.715 E1.14088
G1 X130.753 Y93.795 E1.14996
G1 X130.89 Y93.839 E1.15475
G1 X131.511 Y94.054 E1.17661
G1 X131.647 Y94.104 E1.18142
G1 X132.14 Y94.295 E1.19901
G1 X132.277 Y94.351 E1.20393
G1 X132.802 Y94.577 E1.22294
G1 X132.921 Y94.631 E1.22729
G1 X133.236 Y94.779 E1.23887
G1 X133.358 Y94.838 E1.24337
G1 X133.905 Y95.118 E1.26381
G1 X134.027 Y95.184 E1.26842
G1 X134.453 Y95.421 E1.28464
G1 X134.569 Y95.488 E1.28909
G1 X134.955 Y95.72 E1.30407
G1 X135.075 Y95.795 E1.30878
G1 X135.65 Y96.169 E1.33159
G1 X135.772 Y96.252 E1.3365
G1 X136.144 Y96.514 E1.35163
G1 X136.226 Y96.573 E1.35499
G1 X136.603 Y96.853 E1.37061
G1 X136.75 Y96.967 E1.3768
G1 X136.931 Y97.115 E1.38458
G1 X137.034 Y97.202 E1.38906
G1 X137.78 Y97.855 E1.42204
G1 X137.884 Y97.949 E1.4267
G1 X138.197 Y98.243 E1.44098
G1 X138.306 Y98.351 E1.44609
G1 X138.587 Y98.636 E1.4594
G1 X138.681 Y98.734 E1.46391
G1 X139.101 Y99.19 E1.48453
G1 X139.21 Y99.314 E1.49002
G1 X139.683 Y99.872 E1.51435
G1 X139.781 Y99.992 E1.51951
G1 X140.142 Y100.453 E1.53898
G1 X140.229 Y100.568 E1.54378
G1 X140.447 Y100.868 E1.55611
G1 X140.521 Y100.973 E1.56038
G1 X140.713 Y101.256 E1.57176
G1 X140.79 Y101.375 E1.57647
G1 X141.266 Y102.133 E1.60624
G1 X141.556 Y102.684 E1.62695
G1 X141.751 Y103.139 E1.64342
G1 X141.936 Y103.673 E1.66221
G1 X142.062 Y104.4 E1.68675
G1 X142.093 Y104.792 E1.69983
G1 X142.097 Y105.357 E1.71863
G1 X141.976 Y106.114 E1.74412
G1 X141.867 Y106.533 E1.75852
G1 X141.687 Y107.069 E1.77733
G1 X141.506 Y107.445 E1.79121
G1 X141.354 Y107.723 E1.80175
G1 X141.281 Y107.85 E1.80662
G1 X141.156 Y108.06 E1.81475
G1 X141.058 Y108.216 E1.82087
G1 X140.595 Y108.918 E1.84884
G1 X140.495 Y109.063 E1.8547
G1 X140.229 Y109.43 E1.86978
G1 X140.138 Y109.551 E1.87481
G1 X139.547 Y110.305 E1.90668
G1 X139.403 Y110.478 E1.91416
G1 X139.061 Y110.867 E1.93139
G1 X138.934 Y111.004 E1.9376
G1 X138.485 Y111.469 E1.9591
G1 X138.383 Y111.571 E1.9639
G1 X137.889 Y112.047 E1.98672
G1 X137.78 Y112.149 E1.99168
G1 X137.591 Y112.318 E2.00012
G1 X137.486 Y112.409 E2.00474
G1 X136.783 Y112.995 E2.03518
G1 X136.671 Y113.085 E2.03996
G1 X136.277 Y113.39 E2.05653
G1 X136.175 Y113.466 E2.06076
G1 X135.892 Y113.671 E2.07238
G1 X135.744 Y113.773 E2.07836
G1 X135.434 Y113.977 E2.0907
G1 X135.32 Y114.049 E2.09519
G1 X134.5 Y114.55 E2.12715
G1 X134.265 Y114.684 E2.13615
G1 X133.245 Y115.216 E2.17441
G1 X132.997 Y115.334 E2.18354
G1 X132.384 Y115.602 E2.2058
G1 X132.229 Y115.666 E2.21137
G1 X131.404 Y115.986 E2.2408
G1 X131.138 Y116.079 E2.25018
G1 X130.209 Y116.366 E2.28252
G1 X130.061 Y116.408 E2.28763
G1 X129.803 Y116.477 E2.29652
G1 X129.67 Y116.51 E2.30107
G1 X128.886 Y116.691 E2.32784
G1 X128.766 Y116.717 E2.33192
G1 X128.449 Y116.78 E2.34267
G1 X128.288 Y116.809 E2.34811
G1 X127.86 Y116.876 E2.36252
G1 X127.727 Y116.894 E2.36698
G1 X127.073 Y116.974 E2.3889
G1 X126.923 Y116.99 E2.39391
G1 X126.247 Y117.047 E2.41648
G1 X126.09 Y117.057 E2.42171
G1 X125.71 Y117.074 E2.43436
G1 X125.58 Y117.078 E2.43869
G1 X125.009 Y117.085 E2.45768
G1 X124.857 Y117.084 E2.46274
G1 X123.889 Y117.059 E2.49494
G1 X123.75 Y117.053 E2.49957
G1 X101.411 Y115.697 E3.24394
G1 X101.355 Y115.693 E3.2458
G1 X100.873 Y115.657 E3.26188
G1 X100.737 Y115.644 E3.26642
G1 X100.031 Y115.567 E3.29004
G1 X99.475 Y115.467 E3.30883
G1 X99.016 Y115.319 E3.32487
G1 X98.522 Y115.127 E3.3425
G1 X98.011 Y114.886 E3.36129
G1 X97.472 Y114.522 E3.38293
G1 X97.147 Y114.262 E3.39677
G1 X96.732 Y113.879 E3.41555
G1 X96.497 Y113.606 E3.42753
G1 X96.287 Y113.338 E3.43886
G1 X96.078 Y113.044 E3.45085
G1 X95.968 Y112.874 E3.45759
G1 X95.695 Y112.379 E3.47639
G1 X95.534 Y111.975 E3.49085
G1 X95.453 Y111.734 E3.49931
G1 X95.422 Y111.638 E3.50267
G1 X95.353 Y111.414 E3.51046
G1 X95.193 Y110.604 E3.53792
G1 X95.17 Y110.355 E3.54624
G1 X95.154 Y110.07 E3.55573
G1 X95.127 Y108.762 E3.59925
G1 X95.126 Y108.679 E3.60201
G1 X95.126 Y100.798 E3.86413
G1 X95.135 Y100.196 E3.88416
G1 X95.157 Y99.839 E3.89605
G1 X95.218 Y99.257 E3.91552
G1 X95.316 Y98.7 E3.93433
G1 X95.464 Y98.234 E3.95059
G1 X95.633 Y97.796 E3.9662
G1 X95.873 Y97.284 E3.98501
G1 X96.145 Y96.862 E4.00171
G1 X96.406 Y96.508 E4.01634
G1 X96.773 Y96.078 E4.03514
G0 F3600 X97.078 Y96.339
G1 F1800 X97.275 Y96.156 E4.04408
G1 X97.486 Y95.974 E4.05335
G1 X97.813 Y95.723 E4.06706
G1 X98.019 Y95.583 E4.07535
G1 X98.484 Y95.315 E4.0932
G1 X98.844 Y95.166 E4.10616
G1 X99.246 Y95.024 E4.12034
G1 X99.713 Y94.893 E4.13647
G1 X99.92 Y94.85 E4.1435
G1 X100.354 Y94.787 E4.15809
G1 X100.847 Y94.746 E4.17454
G1 X100.902 Y94.742 E4.17637
G1 X101.996 Y94.668 E4.21284
G1 X102.021 Y94.667 E4.21368
G1 X123.356 Y93.371 E4.92459
G1 X123.411 Y93.368 E4.92642
G1 X124.207 Y93.332 E4.95292
G1 X124.331 Y93.328 E4.95705
G1 X125.169 Y93.319 E4.98492
G1 X125.32 Y93.321 E4.98995
G1 X125.996 Y93.342 E5.01244
G1 X126.137 Y93.349 E5.01714
G1 X126.662 Y93.386 E5.03464
G1 X126.801 Y93.398 E5.03928
G1 X127.376 Y93.461 E5.05852
G1 X127.517 Y93.48 E5.06325
G1 X127.958 Y93.546 E5.07808
G1 X128.087 Y93.567 E5.08243
G1 X128.846 Y93.709 E5.10811
G1 X128.984 Y93.738 E5.1128
G1 X129.313 Y93.813 E5.12403
G1 X129.444 Y93.845 E5.12851
G1 X130.251 Y94.061 E5.1563
G1 X130.375 Y94.097 E5.16059
G1 X130.636 Y94.177 E5.16967
G1 X130.759 Y94.217 E5.17397
G1 X131.38 Y94.432 E5.19583
G1 X131.503 Y94.477 E5.20019
G1 X131.996 Y94.668 E5.21777
G1 X132.118 Y94.718 E5.22216
G1 X132.643 Y94.944 E5.24117
G1 X132.751 Y94.993 E5.24511
G1 X133.066 Y95.141 E5.25669
G1 X133.175 Y95.194 E5.26072
G1 X133.722 Y95.474 E5.28116
G1 X133.832 Y95.533 E5.28531
G1 X134.258 Y95.77 E5.30152
G1 X134.363 Y95.83 E5.30555
G1 X134.749 Y96.062 E5.32052
G1 X134.857 Y96.13 E5.32477
G1 X135.432 Y96.504 E5.34758
G1 X135.542 Y96.579 E5.35201
G1 X135.914 Y96.841 E5.36715
G1 X135.987 Y96.894 E5.37015
G1 X136.364 Y97.174 E5.38576
G1 X136.497 Y97.277 E5.39136
G1 X136.678 Y97.425 E5.39914
G1 X136.77 Y97.503 E5.40315
G1 X137.516 Y98.156 E5.43612
G1 X137.61 Y98.241 E5.44034
G1 X137.923 Y98.535 E5.45462
G1 X138.022 Y98.631 E5.45921
G1 X138.303 Y98.916 E5.47252
G1 X138.387 Y99.005 E5.47659
G1 X138.807 Y99.461 E5.49721
G1 X138.905 Y99.572 E5.50213
G1 X139.378 Y100.13 E5.52646
G1 X139.466 Y100.238 E5.5311
G1 X139.827 Y100.699 E5.55057
G1 X139.905 Y100.803 E5.5549
G1 X140.123 Y101.103 E5.56723
G1 X140.19 Y101.198 E5.5711
G1 X140.382 Y101.481 E5.58247
G1 X140.452 Y101.588 E5.58672
G1 X140.928 Y102.346 E5.61649
G1 X141.188 Y102.842 E5.63512
G1 X141.383 Y103.297 E5.65158
G1 X141.557 Y103.804 E5.66941
G1 X141.663 Y104.431 E5.69056
G1 X141.694 Y104.823 E5.70364
G1 X141.696 Y105.359 E5.72147
G1 X141.589 Y106.013 E5.74351
G1 X141.48 Y106.432 E5.75791
G1 X141.307 Y106.94 E5.77576
G1 X141.155 Y107.253 E5.78733
G1 X141.003 Y107.531 E5.79787
G1 X140.937 Y107.645 E5.80225
G1 X140.812 Y107.855 E5.81038
G1 X140.724 Y107.996 E5.81591
G1 X140.261 Y108.698 E5.84388
G1 X140.171 Y108.829 E5.84916
G1 X139.905 Y109.196 E5.86424
G1 X139.823 Y109.304 E5.86875
G1 X139.232 Y110.058 E5.90061
G1 X139.103 Y110.214 E5.90735
G1 X138.761 Y110.603 E5.92457
G1 X138.647 Y110.727 E5.93018
G1 X138.198 Y111.192 E5.95168
G1 X138.106 Y111.283 E5.95598
G1 X137.612 Y111.759 E5.9788
G1 X137.514 Y111.851 E5.98327
G1 X137.325 Y112.02 E5.9917
G1 X137.23 Y112.101 E5.99585
G1 X136.527 Y112.687 E6.02629
G1 X136.426 Y112.769 E6.03062
G1 X136.032 Y113.074 E6.04719
G1 X135.94 Y113.142 E6.051
G1 X135.657 Y113.347 E6.06262
G1 X135.524 Y113.439 E6.068
G1 X135.214 Y113.643 E6.08034
G1 X135.112 Y113.708 E6.08436
G1 X134.292 Y114.209 E6.11632
G1 X134.08 Y114.329 E6.12443
G1 X133.06 Y114.861 E6.16269
G1 X132.837 Y114.968 E6.17092
G1 X132.224 Y115.236 E6.19317
G1 X132.084 Y115.293 E6.19819
G1 X131.259 Y115.613 E6.22763
G1 X131.02 Y115.697 E6.23605
G1 X130.091 Y115.984 E6.26839
G1 X129.958 Y116.022 E6.27299
G1 X129.7 Y116.091 E6.28188
G1 X129.58 Y116.121 E6.28599
G1 X128.796 Y116.302 E6.31275
G1 X128.688 Y116.325 E6.31642
G1 X128.371 Y116.388 E6.32717
G1 X128.226 Y116.414 E6.33207
G1 X127.798 Y116.481 E6.34648
G1 X127.678 Y116.497 E6.35051
G1 X127.024 Y116.577 E6.37242
G1 X126.889 Y116.591 E6.37694
G1 X126.213 Y116.648 E6.3995
G1 X126.072 Y116.657 E6.4042
G1 X125.692 Y116.674 E6.41685
G1 X125.575 Y116.678 E6.42074
G1 X125.004 Y116.685 E6.43974
G1 X124.867 Y116.684 E6.44429
G1 X123.899 Y116.659 E6.4765
G1 X123.774 Y116.653 E6.48066
G1 X101.435 Y115.297 E7.22503
G1 X101.385 Y115.294 E7.22669
G1 X100.903 Y115.258 E7.24277
G1 X100.781 Y115.247 E7.24685
G1 X100.075 Y115.17 E7.27047
G1 X99.547 Y115.072 E7.28833
G1 X99.161 Y114.946 E7.30183
G1 X98.667 Y114.754 E7.31946
G1 X98.183 Y114.524 E7.33728
G1 X97.722 Y114.21 E7.35584
G1 X97.397 Y113.95 E7.36968
G1 X97.004 Y113.585 E7.38752
G1 X96.812 Y113.359 E7.39738
G1 X96.602 Y113.091 E7.4087
G1 X96.414 Y112.827 E7.41948
G1 X96.304 Y112.657 E7.42622
G1 X96.047 Y112.186 E7.44406
G1 X95.914 Y111.848 E7.45615
G1 X95.833 Y111.607 E7.4646
G1 X95.805 Y111.52 E7.46764
G1 X95.736 Y111.296 E7.47544
G1 X95.591 Y110.567 E7.50016
G1 X95.568 Y110.318 E7.50848
G1 X95.554 Y110.061 E7.51704
G1 X95.527 Y108.753 E7.56055
G1 X95.526 Y108.679 E7.56301
G1 X95.526 Y100.804 E7.82494
G1 X95.535 Y100.202 E7.84496
G1 X95.555 Y99.881 E7.85566
G1 X95.616 Y99.299 E7.87512
G1 X95.711 Y98.771 E7.89296
G1 X95.837 Y98.378 E7.90669
G1 X96.006 Y97.94 E7.92231
G1 X96.236 Y97.456 E7.94013
G1 X96.467 Y97.1 E7.95424
G1 X96.728 Y96.746 E7.96887
G1 X97.078 Y96.339 E7.98673
G0 F3600 X97.536 Y96.459
G1 F1800 X97.747 Y96.277 E7.99599
G1 X98.038 Y96.053 E8.00821
G1 X98.244 Y95.913 E8.01649
G1 X98.684 Y95.663 E8.03332
G1 X98.977 Y95.543 E8.04385
G1 X99.379 Y95.401 E8.05803
G1 X99.794 Y95.285 E8.07237
G1 X100.001 Y95.242 E8.0794
G1 X100.387 Y95.186 E8.09237
G1 X100.88 Y95.145 E8.10883
G1 X100.929 Y95.141 E8.11046
G1 X102.023 Y95.067 E8.14693
G1 X102.045 Y95.066 E8.14766
G1 X123.38 Y93.77 E8.85858
G1 X123.429 Y93.767 E8.86021
G1 X124.225 Y93.731 E8.88671
G1 X124.336 Y93.728 E8.8904
G1 X125.174 Y93.719 E8.91828
G1 X125.307 Y93.721 E8.9227
G1 X125.983 Y93.742 E8.9452
G1 X126.109 Y93.748 E8.94939
G1 X126.634 Y93.785 E8.9669
G1 X126.758 Y93.796 E8.97104
G1 X127.333 Y93.859 E8.99028
G1 X127.458 Y93.875 E8.99447
G1 X127.899 Y93.941 E9.0093
G1 X128.013 Y93.961 E9.01315
G1 X128.772 Y94.103 E9.03883
G1 X128.895 Y94.128 E9.04301
G1 X129.224 Y94.203 E9.05423
G1 X129.34 Y94.232 E9.05821
G1 X130.147 Y94.448 E9.08599
G1 X130.258 Y94.479 E9.08982
G1 X130.519 Y94.559 E9.0989
G1 X130.628 Y94.595 E9.10272
G1 X131.249 Y94.81 E9.12458
G1 X131.358 Y94.85 E9.12844
G1 X131.851 Y95.041 E9.14603
G1 X131.96 Y95.086 E9.14995
G1 X132.485 Y95.312 E9.16896
G1 X132.581 Y95.355 E9.17246
G1 X132.896 Y95.503 E9.18403
G1 X132.993 Y95.551 E9.18763
G1 X133.54 Y95.831 E9.20807
G1 X133.638 Y95.883 E9.21176
G1 X134.064 Y96.12 E9.22797
G1 X134.156 Y96.173 E9.23151
G1 X134.542 Y96.405 E9.24649
G1 X134.639 Y96.466 E9.2503
G1 X135.214 Y96.84 E9.27311
G1 X135.312 Y96.906 E9.27704
G1 X135.684 Y97.168 E9.29217
G1 X135.749 Y97.215 E9.29484
G1 X136.126 Y97.495 E9.31046
G1 X136.244 Y97.587 E9.31544
G1 X136.425 Y97.735 E9.32321
G1 X136.507 Y97.804 E9.32678
G1 X137.253 Y98.457 E9.35975
G1 X137.336 Y98.533 E9.3635
G1 X137.649 Y98.827 E9.37778
G1 X137.737 Y98.912 E9.38185
G1 X138.018 Y99.197 E9.39516
G1 X138.093 Y99.276 E9.39878
G1 X138.513 Y99.732 E9.4194
G1 X138.6 Y99.831 E9.42379
G1 X139.073 Y100.389 E9.44812
G1 X139.151 Y100.485 E9.45223
G1 X139.512 Y100.946 E9.4717
G1 X139.582 Y101.038 E9.47555
G1 X139.8 Y101.338 E9.48788
G1 X139.859 Y101.422 E9.4913
G1 X140.051 Y101.705 E9.50267
G1 X140.113 Y101.8 E9.50645
G1 X140.589 Y102.558 E9.53622
G1 X140.82 Y102.999 E9.55277
G1 X141.015 Y103.454 E9.56924
G1 X141.177 Y103.933 E9.58606
G1 X141.264 Y104.463 E9.60392
G1 X141.295 Y104.855 E9.617
G1 X141.295 Y105.36 E9.6338
G1 X141.202 Y105.913 E9.65245
G1 X141.093 Y106.332 E9.66685
G1 X140.927 Y106.809 E9.68364
G1 X140.804 Y107.061 E9.69297
G1 X140.652 Y107.339 E9.70351
G1 X140.594 Y107.441 E9.70741
G1 X140.469 Y107.651 E9.71554
G1 X140.39 Y107.776 E9.72046
G1 X139.927 Y108.478 E9.74843
G1 X139.847 Y108.594 E9.75311
G1 X139.581 Y108.961 E9.76819
G1 X139.509 Y109.057 E9.77218
G1 X138.918 Y109.811 E9.80405
G1 X138.802 Y109.95 E9.81007
G1 X138.46 Y110.339 E9.82729
G1 X138.359 Y110.449 E9.83226
G1 X137.91 Y110.914 E9.85376
G1 X137.828 Y110.995 E9.85759
G1 X137.334 Y111.471 E9.88041
G1 X137.247 Y111.552 E9.88436
G1 X137.058 Y111.721 E9.8928
G1 X136.974 Y111.794 E9.8965
G1 X136.271 Y112.38 E9.92694
G1 X136.181 Y112.452 E9.93077
G1 X135.787 Y112.757 E9.94734
G1 X135.705 Y112.819 E9.95076
G1 X135.422 Y113.024 E9.96239
G1 X135.304 Y113.105 E9.96715
G1 X134.994 Y113.309 E9.97949
G1 X134.903 Y113.367 E9.98308
G1 X134.083 Y113.868 E10.01504
G1 X133.895 Y113.974 E10.02222
G1 X132.875 Y114.506 E10.06048
G1 X132.677 Y114.601 E10.06778
G1 X132.064 Y114.869 E10.09004
G1 X131.939 Y114.92 E10.09453
G1 X131.114 Y115.24 E10.12396
G1 X130.902 Y115.314 E10.13143
G1 X129.973 Y115.601 E10.16377
G1 X129.855 Y115.635 E10.16785
G1 X129.597 Y115.704 E10.17673
G1 X129.49 Y115.731 E10.1804
G1 X128.706 Y115.912 E10.20717
G1 X128.61 Y115.933 E10.21043
G1 X128.293 Y115.996 E10.22118
G1 X128.164 Y116.018 E10.22554
G1 X127.736 Y116.085 E10.23994
G1 X127.63 Y116.1 E10.24351
G1 X126.976 Y116.18 E10.26542
G1 X126.856 Y116.193 E10.26943
G1 X126.18 Y116.25 E10.292
G1 X126.054 Y116.258 E10.2962
G1 X125.674 Y116.275 E10.30885
G1 X125.57 Y116.278 E10.31231
G1 X124.999 Y116.285 E10.3313
G1 X124.877 Y116.284 E10.33536
G1 X123.909 Y116.259 E10.36757
G1 X123.798 Y116.254 E10.37126
G1 X101.459 Y114.898 E11.11563
G1 X101.415 Y114.895 E11.11709
G1 X100.933 Y114.859 E11.13317
G1 X100.824 Y114.849 E11.13681
G1 X100.118 Y114.772 E11.16043
G1 X99.621 Y114.678 E11.17726
G1 X99.306 Y114.574 E11.18829
G1 X98.812 Y114.382 E11.20592
G1 X98.356 Y114.162 E11.22276
G1 X97.972 Y113.898 E11.23826
