;FLAVOR:Marlin
;TIME:1618
;Filament used: 1.29708m
;Layer height: 0.15
;MINX:111
;MINY:91
;MINZ:0.15
;MAXX:139
;MAXY:119
;MAXZ:19.95
;Generated with Cura_SteamEngine 4.4.1
M82 ;absolute extrusion mode
G21 ; set units to millimeters
G90 ; use absolute positioning
M82 ; absolute extrusion mode
M104 S200 ; set extruder temp
M140 S60 ; set bed temp
M190 S60 ; wait for bed temp
M109 S200 ; wait for extruder temp
G28 W ; home all without mesh bed level
G80 ; mesh bed leveling
G92 E0.0 ; reset extruder distance position
G1 Y-3.0 F1000.0 ; go outside print area
G1 X60.0 E9.0 F1000.0 ; intro line
G1 X100.0 E21.5 F1000.0 ; intro line
G92 E0.0 ; reset extruder distance position
G92 E0
G92 E0
G1 F2100 E-0.8
;LAYER_COUNT:133
;LAYER:0
M107
G0 F3600 X112.004 Y92.369 Z0.15
;TYPE:SKIRT
G1 F2100 E0
G1 F1800 X112.406 Y91.972 E0.01409
G1 X112.86 Y91.635 E0.0282
G1 X113.357 Y91.366 E0.0423
G1 X113.887 Y91.169 E0.0564
G1 X114.44 Y91.05 E0.07051
G1 X114.897 Y91.011 E0.08195
G1 X115.218 Y91.002 E0.08996
G1 X115.33 Y91 E0.09276
G1 X134.35 Y91 E0.56721
G1 X135.048 Y91.01 E0.58463
G1 X135.612 Y91.058 E0.59875
G1 X136.162 Y91.185 E0.61283
G1 X136.69 Y91.389 E0.62695
G1 X137.184 Y91.664 E0.64105
G1 X137.633 Y92.007 E0.65514
G1 X138.03 Y92.409 E0.66924
G1 X138.367 Y92.864 E0.68336
G1 X138.635 Y93.361 E0.69745
G1 X138.831 Y93.891 E0.71154
G1 X138.951 Y94.444 E0.72566
G1 X138.989 Y94.898 E0.73702
G1 X138.998 Y95.218 E0.74501
G1 X139 Y95.33 E0.7478
G1 X139 Y114.314 E1.22136
G1 X138.991 Y115.041 E1.2395
G1 X138.944 Y115.604 E1.25359
G1 X138.818 Y116.155 E1.26769
G1 X138.616 Y116.683 E1.28179
G1 X138.341 Y117.177 E1.2959
G1 X137.999 Y117.627 E1.31
G1 X137.597 Y118.025 E1.32411
G1 X137.144 Y118.362 E1.33819
G1 X136.647 Y118.632 E1.3523
G1 X136.117 Y118.829 E1.3664
G1 X135.565 Y118.95 E1.3805
G1 X135.103 Y118.989 E1.39207
G1 X134.782 Y118.998 E1.40008
G1 X134.67 Y119 E1.40287
G1 X115.655 Y119 E1.8772
G1 X114.957 Y118.991 E1.89462
G1 X114.394 Y118.943 E1.90871
G1 X113.843 Y118.817 E1.92281
G1 X113.315 Y118.615 E1.93691
G1 X112.821 Y118.34 E1.95102
G1 X112.371 Y117.998 E1.96512
G1 X111.973 Y117.596 E1.97923
G1 X111.637 Y117.142 E1.99332
G1 X111.367 Y116.645 E2.00742
G1 X111.17 Y116.115 E2.02153
G1 X111.05 Y115.563 E2.03562
G1 X111.01 Y115.099 E2.04724
G1 X111.001 Y114.766 E2.05555
G1 X111 Y114.658 E2.05824
G1 X111 Y95.62 E2.53315
G1 X111.009 Y94.955 E2.54974
G1 X111.057 Y94.392 E2.56383
G1 X111.183 Y93.841 E2.57793
G1 X111.386 Y93.313 E2.59204
G1 X111.662 Y92.819 E2.60616
G1 X112.004 Y92.369 E2.62026
G0 F3600 X112.397 Y92.531
G1 F1800 X112.794 Y92.171 E2.63363
G1 X113.241 Y91.873 E2.64703
G1 X113.726 Y91.645 E2.6604
G1 X114.24 Y91.492 E2.67377
G1 X114.908 Y91.41 E2.69056
G1 X115.229 Y91.401 E2.69857
G1 X115.33 Y91.4 E2.70109
G1 X134.345 Y91.4 E3.17542
G1 X135.043 Y91.41 E3.19284
G1 X135.577 Y91.458 E3.20621
G1 X136.098 Y91.584 E3.21958
G1 X136.595 Y91.787 E3.23297
G1 X137.056 Y92.061 E3.24635
G1 X137.471 Y92.4 E3.25972
G1 X137.831 Y92.798 E3.27311
G1 X138.128 Y93.244 E3.28647
G1 X138.356 Y93.73 E3.29986
G1 X138.508 Y94.244 E3.31323
G1 X138.59 Y94.909 E3.32995
G1 X138.599 Y95.229 E3.33793
G1 X138.6 Y95.33 E3.34045
G1 X138.6 Y114.309 E3.81389
G1 X138.591 Y115.036 E3.83202
G1 X138.544 Y115.57 E3.8454
G1 X138.419 Y116.091 E3.85876
G1 X138.217 Y116.588 E3.87214
G1 X137.944 Y117.05 E3.88553
G1 X137.606 Y117.466 E3.8989
G1 X137.209 Y117.827 E3.91229
G1 X136.763 Y118.125 E3.92567
G1 X136.278 Y118.353 E3.93903
G1 X135.764 Y118.507 E3.95242
G1 X135.092 Y118.59 E3.96931
G1 X134.771 Y118.599 E3.97732
G1 X134.67 Y118.6 E3.97984
G1 X115.661 Y118.6 E4.45402
G1 X114.963 Y118.591 E4.47143
G1 X114.428 Y118.544 E4.48483
G1 X113.907 Y118.418 E4.4982
G1 X113.41 Y118.216 E4.51159
G1 X112.949 Y117.943 E4.52495
G1 X112.533 Y117.604 E4.53834
G1 X112.172 Y117.208 E4.5517
G1 X111.874 Y116.762 E4.56508
G1 X111.646 Y116.276 E4.57847
G1 X111.493 Y115.762 E4.59185
G1 X111.41 Y115.088 E4.60879
G1 X111.401 Y114.755 E4.6171
G1 X111.4 Y114.658 E4.61952
G1 X111.4 Y95.625 E5.0943
G1 X111.409 Y94.96 E5.11089
G1 X111.457 Y94.426 E5.12427
G1 X111.583 Y93.905 E5.13764
G1 X111.785 Y93.408 E5.15102
G1 X112.058 Y92.947 E5.16439
G1 X112.397 Y92.531 E5.17777
G0 F3600 X112.454 Y93.082
G1 F1800 X112.789 Y92.704 E5.19037
G1 X113.18 Y92.383 E5.20299
G1 X113.617 Y92.128 E5.21561
G1 X114.088 Y91.944 E5.22823
G1 X114.582 Y91.838 E5.24083
G1 X114.919 Y91.81 E5.24926
G1 X115.24 Y91.801 E5.25727
G1 X115.33 Y91.8 E5.25952
G1 X134.339 Y91.8 E5.7337
G1 X135.037 Y91.81 E5.75111
G1 X135.54 Y91.857 E5.76372
G1 X136.03 Y91.983 E5.77634
G1 X136.494 Y92.185 E5.78896
G1 X136.92 Y92.457 E5.80157
G1 X137.298 Y92.792 E5.81417
G1 X137.618 Y93.183 E5.82677
G1 X137.873 Y93.62 E5.83939
G1 X138.056 Y94.091 E5.852
G1 X138.163 Y94.585 E5.86461
G1 X138.19 Y94.92 E5.87299
G1 X138.199 Y95.24 E5.88098
G1 X138.2 Y95.33 E5.88322
G1 X138.2 Y114.304 E6.35653
G1 X138.191 Y115.031 E6.37467
G1 X138.145 Y115.534 E6.38727
G1 X138.02 Y116.024 E6.39988
G1 X137.819 Y116.488 E6.41249
G1 X137.548 Y116.915 E6.42511
G1 X137.213 Y117.294 E6.43773
G1 X136.823 Y117.615 E6.45033
G1 X136.387 Y117.871 E6.46294
G1 X135.916 Y118.054 E6.47555
G1 X135.422 Y118.162 E6.48816
G1 X135.081 Y118.19 E6.49669
G1 X134.76 Y118.199 E6.5047
G1 X134.67 Y118.2 E6.50695
G1 X115.666 Y118.2 E6.98101
G1 X114.968 Y118.191 E6.99842
G1 X114.464 Y118.144 E7.01105
G1 X113.974 Y118.019 E7.02366
G1 X113.51 Y117.818 E7.03628
G1 X113.084 Y117.547 E7.04887
G1 X112.705 Y117.212 E7.06149
G1 X112.384 Y116.821 E7.07411
G1 X112.129 Y116.385 E7.08671
G1 X111.945 Y115.914 E7.09932
G1 X111.838 Y115.42 E7.11193
G1 X111.81 Y115.077 E7.12051
G1 X111.801 Y114.744 E7.12882
G1 X111.8 Y114.658 E7.13097
G1 X111.8 Y95.631 E7.6056
G1 X111.809 Y94.966 E7.62219
G1 X111.856 Y94.462 E7.63482
G1 X111.982 Y93.973 E7.64741
G1 X112.183 Y93.509 E7.66003
G1 X112.454 Y93.082 E7.67264
G1 F2100 E6.87264
;MESH:20mmTestCube_repaired.stl
G0 F3600 X114.335 Y95.614
G0 X115.614 Y95.614
G0 X115.67 Y114.33
G0 X115.6 Y114.4
;TYPE:WALL-INNER
G1 F2100 E7.67264
G1 F1800 X115.6 Y95.6 E8.14161
G1 X134.4 Y95.6 E8.61058
G1 X134.4 Y114.4 E9.07955
G1 X115.6 Y114.4 E9.54851
G0 F3600 X115.2 Y114.8
;TYPE:WALL-OUTER
G1 F1800 X115.2 Y95.2 E10.03744
G1 X134.8 Y95.2 E10.52636
G1 X134.8 Y114.8 E11.01529
G1 X115.2 Y114.8 E11.50421
G0 F3600 X115.2 Y114.6
G0 X115.99 Y114.01
;TYPE:SKIN
G1 F1800 X115.99 Y95.99 E11.95372
G1 X134.01 Y95.99 E12.40323
G1 X134.01 Y114.01 E12.85274
G1 X115.99 Y114.01 E13.30225
G0 F3600 X116.658 Y113.83
G1 F1800 X116.169 Y113.34 E13.31952
G0 F3600 X116.169 Y112.775
G1 F1800 X117.224 Y113.83 E13.35674
G0 F3600 X117.789 Y113.83
G1 F1800 X116.169 Y112.209 E13.41391
G0 F3600 X116.169 Y111.643
G1 F1800 X118.355 Y113.83 E13.49104
G0 F3600 X118.921 Y113.83
G1 F1800 X116.169 Y111.077 E13.58814
G0 F3600 X116.169 Y110.512
G1 F1800 X119.486 Y113.83 E13.70518
G0 F3600 X120.052 Y113.83
G1 F1800 X116.169 Y109.946 E13.84218
G0 F3600 X116.169 Y109.38
G1 F1800 X120.618 Y113.83 E13.99915
G0 F3600 X121.183 Y113.83
G1 F1800 X116.169 Y108.815 E14.17605
G0 F3600 X116.169 Y108.249
G1 F1800 X121.749 Y113.83 E14.37291
G0 F3600 X122.315 Y113.83
G1 F1800 X116.169 Y107.683 E14.58975
G0 F3600 X116.169 Y107.118
G1 F1800 X122.881 Y113.83 E14.82653
G0 F3600 X123.446 Y113.83
G1 F1800 X116.169 Y106.552 E15.08327
G0 F3600 X116.169 Y105.986
G1 F1800 X124.012 Y113.83 E15.35997
G0 F3600 X124.578 Y113.83
G1 F1800 X116.169 Y105.421 E15.65662
G0 F3600 X116.169 Y104.855
G1 F1800 X125.143 Y113.83 E15.97322
G0 F3600 X125.709 Y113.83
G1 F1800 X116.169 Y104.289 E16.30978
G0 F3600 X116.169 Y103.724
G1 F1800 X126.275 Y113.83 E16.6663
G0 F3600 X126.84 Y113.83
G1 F1800 X116.169 Y103.158 E17.04277
G0 F3600 X116.169 Y102.592
G1 F1800 X127.406 Y113.83 E17.4392
G0 F3600 X127.972 Y113.83
G1 F1800 X116.169 Y102.027 E17.85558
G0 F3600 X116.169 Y101.461
G1 F1800 X128.537 Y113.83 E18.29191
G0 F3600 X129.103 Y113.83
G1 F1800 X116.169 Y100.895 E18.74821
G0 F3600 X116.169 Y100.329
G1 F1800 X129.669 Y113.83 E19.22448
G0 F3600 X130.234 Y113.83
G1 F1800 X116.169 Y99.764 E19.72068
G0 F3600 X116.169 Y99.198
G1 F1800 X130.8 Y113.83 E20.23684
G0 F3600 X131.366 Y113.83
G1 F1800 X116.169 Y98.632 E20.77298
G0 F3600 X116.169 Y98.067
G1 F1800 X131.931 Y113.83 E21.32904
G0 F3600 X132.497 Y113.83
G1 F1800 X116.169 Y97.501 E21.90507
G0 F3600 X116.169 Y96.935
G1 F1800 X133.063 Y113.83 E22.50107
G0 F3600 X133.629 Y113.83
G1 F1800 X116.169 Y96.37 E23.11702
G0 F3600 X116.534 Y96.17
G1 F1800 X133.829 Y113.465 E23.72715
G0 F3600 X133.829 Y112.899
G1 F1800 X117.1 Y96.17 E24.31731
G0 F3600 X117.666 Y96.17
G1 F1800 X133.829 Y112.333 E24.8875
G0 F3600 X133.829 Y111.768
G1 F1800 X118.231 Y96.17 E25.43776
G0 F3600 X118.797 Y96.17
G1 F1800 X133.829 Y111.202 E25.96806
G0 F3600 X133.829 Y110.636
G1 F1800 X119.363 Y96.17 E26.47839
G0 F3600 X119.928 Y96.17
G1 F1800 X133.829 Y110.071 E26.96878
G0 F3600 X133.829 Y109.505
G1 F1800 X120.494 Y96.17 E27.43921
G0 F3600 X121.06 Y96.17
G1 F1800 X133.829 Y108.939 E27.88967
G0 F3600 X133.829 Y108.374
G1 F1800 X121.625 Y96.17 E28.3202
G0 F3600 X122.191 Y96.17
G1 F1800 X133.829 Y107.808 E28.73076
G0 F3600 X133.829 Y107.242
G1 F1800 X122.757 Y96.17 E29.12136
G0 F3600 X123.322 Y96.17
G1 F1800 X133.829 Y106.676 E29.492
G0 F3600 X133.829 Y106.111
G1 F1800 X123.888 Y96.17 E29.8427
G0 F3600 X124.454 Y96.17
G1 F1800 X133.829 Y105.545 E30.17343
G0 F3600 X133.829 Y104.979
G1 F1800 X125.02 Y96.17 E30.48419
G0 F3600 X125.585 Y96.17
G1 F1800 X133.829 Y104.414 E30.77502
G0 F3600 X133.829 Y103.848
G1 F1800 X126.151 Y96.17 E31.04588
G0 F3600 X126.717 Y96.17
G1 F1800 X133.829 Y103.282 E31.29677
G0 F3600 X133.829 Y102.717
G1 F1800 X127.282 Y96.17 E31.52774
G0 F3600 X127.848 Y96.17
G1 F1800 X133.829 Y102.151 E31.73873
G0 F3600 X133.829 Y101.585
G1 F1800 X128.414 Y96.17 E31.92976
G0 F3600 X128.979 Y96.17
G1 F1800 X133.829 Y101.02 E32.10086
G0 F3600 X133.829 Y100.454
G1 F1800 X129.545 Y96.17 E32.25199
G0 F3600 X130.111 Y96.17
G1 F1800 X133.829 Y99.888 E32.38315
G0 F3600 X133.829 Y99.323
G1 F1800 X130.676 Y96.17 E32.49438
G0 F3600 X131.242 Y96.17
G1 F1800 X133.829 Y98.757 E32.58564
G0 F3600 X133.829 Y98.191
G1 F1800 X131.808 Y96.17 E32.65694
G0 F3600 X132.373 Y96.17
G1 F1800 X133.829 Y97.625 E32.70829
G0 F3600 X133.829 Y97.06
G1 F1800 X132.939 Y96.17 E32.73968
G0 F3600 X133.505 Y96.17
M104 S200
G1 F1800 X133.829 Y96.494 E32.75111
;MESH:NONMESH
G0 F600 X133.829 Y96.494 Z0.3
G0 F3600 X115.67 Y114.33
G0 X115.6 Y114.4
;TIME_ELAPSED:52.821329
;LAYER:1
M140 S60
M106 S255
;TYPE:WALL-INNER
;MESH:20mmTestCube_repaired.stl
G1 F2700 X115.6 Y95.6 E33.22008
G1 X134.4 Y95.6 E33.68905
G1 X134.4 Y114.4 E34.15802
G1 X115.6 Y114.4 E34.62699
G0 F5400 X115.2 Y114.8
;TYPE:WALL-OUTER
G1 F1800 X115.2 Y95.2 E35.11591
G1 X134.8 Y95.2 E35.60483
G1 X134.8 Y114.8 E36.09376
G1 X115.2 Y114.8 E36.58268
G0 F5400 X115.2 Y114.6
G0 X115.99 Y114.01
;TYPE:SKIN
G1 F1800 X115.99 Y95.99 E37.03219
G1 X134.01 Y95.99 E37.4817
G1 X134.01 Y114.01 E37.93121
G1 X115.99 Y114.01 E38.38072
G0 F5400 X116.527 Y96.17
G1 F1800 X116.169 Y96.527 E38.39334
G0 F5400 X116.169 Y97.093
G1 F1800 X117.093 Y96.17 E38.42592
G0 F5400 X117.659 Y96.17
G1 F1800 X116.169 Y97.659 E38.47846
G0 F5400 X116.169 Y98.224
G1 F1800 X118.224 Y96.17 E38.55094
G0 F5400 X118.79 Y96.17
G1 F1800 X116.169 Y98.79 E38.64338
G0 F5400 X116.169 Y99.356
G1 F1800 X119.356 Y96.17 E38.7558
G0 F5400 X119.921 Y96.17
G1 F1800 X116.169 Y99.921 E38.88814
G0 F5400 X116.169 Y100.487
G1 F1800 X120.487 Y96.17 E39.04045
G0 F5400 X121.053 Y96.17
G1 F1800 X116.169 Y101.053 E39.21273
G0 F5400 X116.169 Y101.619
G1 F1800 X121.618 Y96.17 E39.40496
G0 F5400 X122.184 Y96.17
G1 F1800 X116.169 Y102.184 E39.61714
G0 F5400 X116.169 Y102.75
G1 F1800 X122.75 Y96.17 E39.84928
G0 F5400 X123.315 Y96.17
G1 F1800 X116.169 Y103.316 E40.10138
G0 F5400 X116.169 Y103.881
G1 F1800 X123.881 Y96.17 E40.37342
G0 F5400 X124.447 Y96.17
G1 F1800 X116.169 Y104.447 E40.66543
G0 F5400 X116.169 Y105.013
G1 F1800 X125.012 Y96.17 E40.97739
G0 F5400 X125.578 Y96.17
G1 F1800 X116.169 Y105.578 E41.3093
G0 F5400 X116.169 Y106.144
G1 F1800 X126.144 Y96.17 E41.66118
G0 F5400 X126.709 Y96.17
G1 F1800 X116.169 Y106.71 E42.03301
G0 F5400 X116.169 Y107.275
G1 F1800 X127.275 Y96.17 E42.42478
G0 F5400 X127.841 Y96.17
G1 F1800 X116.169 Y107.841 E42.83653
G0 F5400 X116.169 Y108.407
G1 F1800 X128.407 Y96.17 E43.26824
G0 F5400 X128.972 Y96.17
G1 F1800 X116.169 Y108.972 E43.71988
G0 F5400 X116.169 Y109.538
G1 F1800 X129.538 Y96.17 E44.19149
G0 F5400 X130.104 Y96.17
G1 F1800 X116.169 Y110.104 E44.68307
G0 F5400 X116.169 Y110.669
G1 F1800 X130.669 Y96.17 E45.19458
G0 F5400 X131.235 Y96.17
G1 F1800 X116.169 Y111.235 E45.72605
G0 F5400 X116.169 Y111.801
G1 F1800 X131.801 Y96.17 E46.2775
G0 F5400 X132.366 Y96.17
G1 F1800 X116.169 Y112.367 E46.84889
G0 F5400 X116.169 Y112.932
G1 F1800 X132.932 Y96.17 E47.44023
G0 F5400 X133.498 Y96.17
G1 F1800 X116.169 Y113.498 E48.05154
G0 F5400 X116.403 Y113.83
G1 F1800 X133.829 Y96.404 E48.66629
G0 F5400 X133.829 Y96.97
G1 F1800 X116.969 Y113.83 E49.26107
G0 F5400 X117.535 Y113.83
G1 F1800 X133.829 Y97.536 E49.83589
G0 F5400 X133.829 Y98.101
G1 F1800 X118.1 Y113.83 E50.39077
G0 F5400 X118.666 Y113.83
G1 F1800 X133.829 Y98.667 E50.92569
G0 F5400 X133.829 Y99.233
G1 F1800 X119.232 Y113.83 E51.44064
G0 F5400 X119.798 Y113.83
G1 F1800 X133.829 Y99.798 E51.93563
G0 F5400 X133.829 Y100.364
G1 F1800 X120.363 Y113.83 E52.41068
G0 F5400 X120.929 Y113.83
G1 F1800 X133.829 Y100.93 E52.86577
G0 F5400 X133.829 Y101.495
G1 F1800 X121.495 Y113.83 E53.3009
G0 F5400 X122.06 Y113.83
G1 F1800 X133.829 Y102.061 E53.71608
G0 F5400 X133.829 Y102.627
G1 F1800 X122.626 Y113.83 E54.1113
G0 F5400 X123.192 Y113.83
G1 F1800 X133.829 Y103.193 E54.48655
G0 F5400 X133.829 Y103.758
G1 F1800 X123.757 Y113.83 E54.84186
G0 F5400 X124.323 Y113.83
G1 F1800 X133.829 Y104.324 E55.17721
G0 F5400 X133.829 Y104.89
G1 F1800 X124.889 Y113.83 E55.4926
G0 F5400 X125.454 Y113.83
G1 F1800 X133.829 Y105.455 E55.78805
G0 F5400 X133.829 Y106.021
G1 F1800 X126.02 Y113.83 E56.06353
G0 F5400 X126.586 Y113.83
G1 F1800 X133.829 Y106.587 E56.31905
G0 F5400 X133.829 Y107.152
G1 F1800 X127.151 Y113.83 E56.55463
G0 F5400 X127.717 Y113.83
G1 F1800 X133.829 Y107.718 E56.77025
G0 F5400 X133.829 Y108.284
G1 F1800 X128.283 Y113.83 E56.9659
G0 F5400 X128.848 Y113.83
G1 F1800 X133.829 Y108.849 E57.14162
G0 F5400 X133.829 Y109.415
G1 F1800 X129.414 Y113.83 E57.29737
G0 F5400 X129.98 Y113.83
G1 F1800 X133.829 Y109.981 E57.43315
G0 F5400 X133.829 Y110.546
G1 F1800 X130.546 Y113.83 E57.54899
G0 F5400 X131.111 Y113.83
G1 F1800 X133.829 Y111.112 E57.64487
G0 F5400 X133.829 Y111.678
G1 F1800 X131.677 Y113.83 E57.72079
G0 F5400 X132.243 Y113.83
G1 F1800 X133.829 Y112.244 E57.77674
G0 F5400 X133.829 Y112.809
G1 F1800 X132.808 Y113.83 E57.81276
G0 F5400 X133.374 Y113.83
G1 F1800 X133.829 Y113.375 E57.82881
;MESH:NONMESH
G0 F600 X133.829 Y113.375 Z0.45
G0 F5400 X115.67 Y114.33
G0 X115.6 Y114.4
;TIME_ELAPSED:89.826222
;LAYER:2
;TYPE:WALL-INNER
;MESH:20mmTestCube_repaired.stl
G1 F3600 X115.6 Y95.6 E58.29778
G1 X134.4 Y95.6 E58.76675
G1 X134.4 Y114.4 E59.23571
G1 X115.6 Y114.4 E59.70468
G0 F7200 X115.2 Y114.8
;TYPE:WALL-OUTER
G1 F1800 X115.2 Y95.2 E60.1936
G1 X134.8 Y95.2 E60.68253
G1 X134.8 Y114.8 E61.17145
G1 X115.2 Y114.8 E61.66038
G0 F7200 X115.2 Y114.6
G0 X115.99 Y114.01
;TYPE:SKIN
G1 F1800 X115.99 Y95.99 E62.10989
G1 X134.01 Y95.99 E62.5594
G1 X134.01 Y114.01 E63.00891
G1 X115.99 Y114.01 E63.45842
G0 F7200 X116.658 Y113.83
G1 F1800 X116.169 Y113.34 E63.47569
G0 F7200 X116.169 Y112.775
G1 F1800 X117.224 Y113.83 E63.51291
