;FLAVOR:Marlin
;TIME:1002
;Filament used: 1.32746m
;Layer height: 0.25
;MINX:111
;MINY:91
;MINZ:0.25
;MAXX:139
;MAXY:119
;MAXZ:20
;Generated with Cura_SteamEngine 4.4.1
M82 ;absolute extrusion mode
G21 ; set units to millimeters
G90 ; use absolute positioning
M82 ; absolute extrusion mode
M104 S200 ; set extruder temp
M140 S60 ; set bed temp
M190 S60 ; wait for bed temp
M109 S200 ; wait for extruder temp
G28 W ; home all without mesh bed level
G80 ; mesh bed leveling
G92 E0.0 ; reset extruder distance position
G1 Y-3.0 F1000.0 ; go outside print area
G1 X60.0 E9.0 F1000.0 ; intro line
G1 X100.0 E21.5 F1000.0 ; intro line
G92 E0.0 ; reset extruder distance position
G92 E0
G92 E0
G1 F2100 E-0.8
;LAYER_COUNT:80
;LAYER:0
M107
G0 F3600 X112.004 Y92.369 Z0.25
;TYPE:SKIRT
G1 F2100 E0
G1 F1800 X112.406 Y91.972 E0.02349
G1 X112.86 Y91.635 E0.047
G1 X113.357 Y91.366 E0.07049
G1 X113.887 Y91.169 E0.094
G1 X114.44 Y91.05 E0.11752
G1 X114.897 Y91.011 E0.13659
G1 X115.218 Y91.002 E0.14994
G1 X115.33 Y91 E0.15459
G1 X134.35 Y91 E0.94535
G1 X135.048 Y91.01 E0.97438
G1 X135.612 Y91.058 E0.99791
G1 X136.162 Y91.185 E1.02138
G1 X136.69 Y91.389 E1.04491
G1 X137.184 Y91.664 E1.06842
G1 X137.633 Y92.007 E1.09191
G1 X138.03 Y92.409 E1.1154
G1 X138.367 Y92.864 E1.13894
G1 X138.635 Y93.361 E1.16241
G1 X138.831 Y93.891 E1.18591
G1 X138.951 Y94.444 E1.20943
G1 X138.989 Y94.898 E1.22837
G1 X138.998 Y95.218 E1.24168
G1 X139 Y95.33 E1.24634
G1 X139 Y114.314 E2.0356
G1 X138.991 Y115.041 E2.06583
G1 X138.944 Y115.604 E2.08932
G1 X138.818 Y116.155 E2.11282
G1 X138.616 Y116.683 E2.13632
G1 X138.341 Y117.177 E2.15983
G1 X137.999 Y117.627 E2.18333
G1 X137.597 Y118.025 E2.20684
G1 X137.144 Y118.362 E2.23032
G1 X136.647 Y118.632 E2.25383
G1 X136.117 Y118.829 E2.27734
G1 X135.565 Y118.95 E2.30084
G1 X135.103 Y118.989 E2.32011
G1 X134.782 Y118.998 E2.33346
G1 X134.67 Y119 E2.33812
G1 X115.655 Y119 E3.12867
G1 X114.957 Y118.991 E3.15769
G1 X114.394 Y118.943 E3.18118
G1 X113.843 Y118.817 E3.20468
G1 X113.315 Y118.615 E3.22819
G1 X112.821 Y118.34 E3.25169
G1 X112.371 Y117.998 E3.27519
G1 X111.973 Y117.596 E3.29871
G1 X111.637 Y117.142 E3.32219
G1 X111.367 Y116.645 E3.34571
G1 X111.17 Y116.115 E3.36922
G1 X111.05 Y115.563 E3.3927
G1 X111.01 Y115.099 E3.41206
G1 X111.001 Y114.766 E3.42591
G1 X111 Y114.658 E3.4304
G1 X111 Y95.62 E4.22191
G1 X111.009 Y94.955 E4.24956
G1 X111.057 Y94.392 E4.27305
G1 X111.183 Y93.841 E4.29655
G1 X111.386 Y93.313 E4.32007
G1 X111.662 Y92.819 E4.3436
G1 X112.004 Y92.369 E4.3671
G0 F3600 X112.397 Y92.531
G1 F1800 X112.794 Y92.171 E4.38938
G1 X113.241 Y91.873 E4.41171
G1 X113.726 Y91.645 E4.43399
G1 X114.24 Y91.492 E4.45629
G1 X114.908 Y91.41 E4.48427
G1 X115.229 Y91.401 E4.49762
G1 X115.33 Y91.4 E4.50182
G1 X134.345 Y91.4 E5.29237
G1 X135.043 Y91.41 E5.32139
G1 X135.577 Y91.458 E5.34369
G1 X136.098 Y91.584 E5.36597
G1 X136.595 Y91.787 E5.38829
G1 X137.056 Y92.061 E5.41059
G1 X137.471 Y92.4 E5.43286
G1 X137.831 Y92.798 E5.45518
G1 X138.128 Y93.244 E5.47745
G1 X138.356 Y93.73 E5.49977
G1 X138.508 Y94.244 E5.52206
G1 X138.59 Y94.909 E5.54991
G1 X138.599 Y95.229 E5.56322
G1 X138.6 Y95.33 E5.56742
G1 X138.6 Y114.309 E6.35648
G1 X138.591 Y115.036 E6.38671
G1 X138.544 Y115.57 E6.40899
G1 X138.419 Y116.091 E6.43127
G1 X138.217 Y116.588 E6.45357
G1 X137.944 Y117.05 E6.47588
G1 X137.606 Y117.466 E6.49817
G1 X137.209 Y117.827 E6.52048
G1 X136.763 Y118.125 E6.54278
G1 X136.278 Y118.353 E6.56506
G1 X135.764 Y118.507 E6.58737
G1 X135.092 Y118.59 E6.61552
G1 X134.771 Y118.599 E6.62887
G1 X134.67 Y118.6 E6.63307
G1 X115.661 Y118.6 E7.42337
G1 X114.963 Y118.591 E7.45239
G1 X114.428 Y118.544 E7.47472
G1 X113.907 Y118.418 E7.497
G1 X113.41 Y118.216 E7.51931
G1 X112.949 Y117.943 E7.54158
G1 X112.533 Y117.604 E7.56389
G1 X112.172 Y117.208 E7.58617
G1 X111.874 Y116.762 E7.60847
G1 X111.646 Y116.276 E7.63079
G1 X111.493 Y115.762 E7.65309
G1 X111.41 Y115.088 E7.68132
G1 X111.401 Y114.755 E7.69517
G1 X111.4 Y114.658 E7.6992
G1 X111.4 Y95.625 E8.4905
G1 X111.409 Y94.96 E8.51815
G1 X111.457 Y94.426 E8.54044
G1 X111.583 Y93.905 E8.56273
G1 X111.785 Y93.408 E8.58503
G1 X112.058 Y92.947 E8.60731
G1 X112.397 Y92.531 E8.62962
G0 F3600 X112.454 Y93.082
G1 F1800 X112.789 Y92.704 E8.65062
G1 X113.18 Y92.383 E8.67165
G1 X113.617 Y92.128 E8.69269
G1 X114.088 Y91.944 E8.71371
G1 X114.582 Y91.838 E8.73471
G1 X114.919 Y91.81 E8.74877
G1 X115.24 Y91.801 E8.76212
G1 X115.33 Y91.8 E8.76587
G1 X134.339 Y91.8 E9.55617
G1 X135.037 Y91.81 E9.58519
G1 X135.54 Y91.857 E9.60619
G1 X136.03 Y91.983 E9.62723
G1 X136.494 Y92.185 E9.64827
G1 X136.92 Y92.457 E9.66928
G1 X137.298 Y92.792 E9.69028
G1 X137.618 Y93.183 E9.71129
G1 X137.873 Y93.62 E9.73232
G1 X138.056 Y94.091 E9.75333
G1 X138.163 Y94.585 E9.77435
G1 X138.19 Y94.92 E9.78832
G1 X138.199 Y95.24 E9.80163
G1 X138.2 Y95.33 E9.80537
G1 X138.2 Y114.304 E10.59422
G1 X138.191 Y115.031 E10.62444
G1 X138.145 Y115.534 E10.64544
G1 X138.02 Y116.024 E10.66647
G1 X137.819 Y116.488 E10.68749
G1 X137.548 Y116.915 E10.70852
G1 X137.213 Y117.294 E10.72955
G1 X136.823 Y117.615 E10.75055
G1 X136.387 Y117.871 E10.77157
G1 X135.916 Y118.054 E10.79258
G1 X135.422 Y118.162 E10.8136
G1 X135.081 Y118.19 E10.82782
G1 X134.76 Y118.199 E10.84117
G1 X134.67 Y118.2 E10.84492
G1 X115.666 Y118.2 E11.63501
G1 X114.968 Y118.191 E11.66403
G1 X114.464 Y118.144 E11.68508
G1 X113.974 Y118.019 E11.7061
G1 X113.51 Y117.818 E11.72713
G1 X113.084 Y117.547 E11.74812
G1 X112.705 Y117.212 E11.76915
G1 X112.384 Y116.821 E11.79018
G1 X112.129 Y116.385 E11.81118
G1 X111.945 Y115.914 E11.8322
G1 X111.838 Y115.42 E11.85322
G1 X111.81 Y115.077 E11.86752
G1 X111.801 Y114.744 E11.88137
G1 X111.8 Y114.658 E11.88495
G1 X111.8 Y95.631 E12.676
G1 X111.809 Y94.966 E12.70365
G1 X111.856 Y94.462 E12.72469
G1 X111.982 Y93.973 E12.74569
G1 X112.183 Y93.509 E12.76671
G1 X112.454 Y93.082 E12.78774
G1 F2100 E11.98774
;MESH:20mmTestCube_repaired.stl
G0 F3600 X114.335 Y95.614
G0 X115.614 Y95.614
G0 X115.67 Y114.33
G0 X115.6 Y114.4
;TYPE:WALL-INNER
G1 F2100 E12.78774
G1 F1800 X115.6 Y95.6 E13.56935
G1 X134.4 Y95.6 E14.35096
G1 X134.4 Y114.4 E15.13258
G1 X115.6 Y114.4 E15.91419
G0 F3600 X115.2 Y114.8
;TYPE:WALL-OUTER
G1 F1800 X115.2 Y95.2 E16.72906
G1 X134.8 Y95.2 E17.54394
G1 X134.8 Y114.8 E18.35881
G1 X115.2 Y114.8 E19.17368
G0 F3600 X115.2 Y114.6
G0 X115.99 Y114.01
;TYPE:SKIN
G1 F1800 X115.99 Y95.99 E19.92287
G1 X134.01 Y95.99 E20.67205
G1 X134.01 Y114.01 E21.42124
G1 X115.99 Y114.01 E22.17042
G0 F3600 X116.658 Y113.83
G1 F1800 X116.169 Y113.34 E22.1992
G0 F3600 X116.169 Y112.775
G1 F1800 X117.224 Y113.83 E22.26123
G0 F3600 X117.789 Y113.83
G1 F1800 X116.169 Y112.209 E22.35651
G0 F3600 X116.169 Y111.643
G1 F1800 X118.355 Y113.83 E22.48507
G0 F3600 X118.921 Y113.83
G1 F1800 X116.169 Y111.077 E22.64691
G0 F3600 X116.169 Y110.512
G1 F1800 X119.486 Y113.83 E22.84196
G0 F3600 X120.052 Y113.83
G1 F1800 X116.169 Y109.946 E23.0703
G0 F3600 X116.169 Y109.38
G1 F1800 X120.618 Y113.83 E23.33191
G0 F3600 X121.183 Y113.83
G1 F1800 X116.169 Y108.815 E23.62674
G0 F3600 X116.169 Y108.249
G1 F1800 X121.749 Y113.83 E23.95486
G0 F3600 X122.315 Y113.83
G1 F1800 X116.169 Y107.683 E24.31625
G0 F3600 X116.169 Y107.118
G1 F1800 X122.881 Y113.83 E24.71089
G0 F3600 X123.446 Y113.83
G1 F1800 X116.169 Y106.552 E25.13878
G0 F3600 X116.169 Y105.986
G1 F1800 X124.012 Y113.83 E25.59994
G0 F3600 X124.578 Y113.83
G1 F1800 X116.169 Y105.421 E26.09436
G0 F3600 X116.169 Y104.855
G1 F1800 X125.143 Y113.83 E26.62203
G0 F3600 X125.709 Y113.83
G1 F1800 X116.169 Y104.289 E27.18297
G0 F3600 X116.169 Y103.724
G1 F1800 X126.275 Y113.83 E27.77717
G0 F3600 X126.84 Y113.83
G1 F1800 X116.169 Y103.158 E28.40461
G0 F3600 X116.169 Y102.592
G1 F1800 X127.406 Y113.83 E29.06533
G0 F3600 X127.972 Y113.83
G1 F1800 X116.169 Y102.027 E29.7593
G0 F3600 X116.169 Y101.461
G1 F1800 X128.537 Y113.83 E30.48652
G0 F3600 X129.103 Y113.83
G1 F1800 X116.169 Y100.895 E31.24702
G0 F3600 X116.169 Y100.329
G1 F1800 X129.669 Y113.83 E32.0408
G0 F3600 X130.234 Y113.83
G1 F1800 X116.169 Y99.764 E32.8678
G0 F3600 X116.169 Y99.198
G1 F1800 X130.8 Y113.83 E33.72807
G0 F3600 X131.366 Y113.83
G1 F1800 X116.169 Y98.632 E34.62163
G0 F3600 X116.169 Y98.067
G1 F1800 X131.931 Y113.83 E35.5484
G0 F3600 X132.497 Y113.83
G1 F1800 X116.169 Y97.501 E36.50846
G0 F3600 X116.169 Y96.935
G1 F1800 X133.063 Y113.83 E37.50179
G0 F3600 X133.629 Y113.83
G1 F1800 X116.169 Y96.37 E38.52837
G0 F3600 X116.534 Y96.17
G1 F1800 X133.829 Y113.465 E39.54525
G0 F3600 X133.829 Y112.899
G1 F1800 X117.1 Y96.17 E40.52885
G0 F3600 X117.666 Y96.17
G1 F1800 X133.829 Y112.333 E41.47917
G0 F3600 X133.829 Y111.768
G1 F1800 X118.231 Y96.17 E42.39627
G0 F3600 X118.797 Y96.17
G1 F1800 X133.829 Y111.202 E43.2801
G0 F3600 X133.829 Y110.636
G1 F1800 X119.363 Y96.17 E44.13064
G0 F3600 X119.928 Y96.17
G1 F1800 X133.829 Y110.071 E44.94797
G0 F3600 X133.829 Y109.505
G1 F1800 X120.494 Y96.17 E45.73202
G0 F3600 X121.06 Y96.17
G1 F1800 X133.829 Y108.939 E46.48278
G0 F3600 X133.829 Y108.374
G1 F1800 X121.625 Y96.17 E47.20033
G0 F3600 X122.191 Y96.17
G1 F1800 X133.829 Y107.808 E47.8846
G0 F3600 X133.829 Y107.242
G1 F1800 X122.757 Y96.17 E48.53559
G0 F3600 X123.322 Y96.17
G1 F1800 X133.829 Y106.676 E49.15334
G0 F3600 X133.829 Y106.111
G1 F1800 X123.888 Y96.17 E49.73783
G0 F3600 X124.454 Y96.17
G1 F1800 X133.829 Y105.545 E50.28904
G0 F3600 X133.829 Y104.979
G1 F1800 X125.02 Y96.17 E50.80698
G0 F3600 X125.585 Y96.17
G1 F1800 X133.829 Y104.414 E51.29169
G0 F3600 X133.829 Y103.848
G1 F1800 X126.151 Y96.17 E51.74313
G0 F3600 X126.717 Y96.17
G1 F1800 X133.829 Y103.282 E52.16129
G0 F3600 X133.829 Y102.717
G1 F1800 X127.282 Y96.17 E52.54623
G0 F3600 X127.848 Y96.17
G1 F1800 X133.829 Y102.151 E52.89789
G0 F3600 X133.829 Y101.585
G1 F1800 X128.414 Y96.17 E53.21627
G0 F3600 X128.979 Y96.17
G1 F1800 X133.829 Y101.02 E53.50143
G0 F3600 X133.829 Y100.454
G1 F1800 X129.545 Y96.17 E53.75331
G0 F3600 X130.111 Y96.17
G1 F1800 X133.829 Y99.888 E53.97192
G0 F3600 X133.829 Y99.323
G1 F1800 X130.676 Y96.17 E54.1573
G0 F3600 X131.242 Y96.17
G1 F1800 X133.829 Y98.757 E54.30941
G0 F3600 X133.829 Y98.191
G1 F1800 X131.808 Y96.17 E54.42823
G0 F3600 X132.373 Y96.17
G1 F1800 X133.829 Y97.625 E54.51381
G0 F3600 X133.829 Y97.06
G1 F1800 X132.939 Y96.17 E54.56614
G0 F3600 X133.505 Y96.17
M104 S200
G1 F1800 X133.829 Y96.494 E54.58519
;MESH:NONMESH
G0 F600 X133.829 Y96.494 Z0.5
G0 F3600 X115.67 Y114.33
G0 X115.6 Y114.4
;TIME_ELAPSED:52.831328
;LAYER:1
M140 S60
M106 S255
;TYPE:WALL-INNER
;MESH:20mmTestCube_repaired.stl
G1 F2700 X115.6 Y95.6 E55.3668
G1 X134.4 Y95.6 E56.14842
G1 X134.4 Y114.4 E56.93003
G1 X115.6 Y114.4 E57.71164
G0 F5400 X115.2 Y114.8
;TYPE:WALL-OUTER
G1 F1800 X115.2 Y95.2 E58.52652
G1 X134.8 Y95.2 E59.34139
G1 X134.8 Y114.8 E60.15626
G1 X115.2 Y114.8 E60.97114
G0 F5400 X115.2 Y114.6
G0 X115.99 Y114.01
;TYPE:SKIN
G1 F1800 X115.99 Y95.99 E61.72032
G1 X134.01 Y95.99 E62.4695
G1 X134.01 Y114.01 E63.21869
G1 X115.99 Y114.01 E63.96787
G0 F5400 X116.527 Y96.17
G1 F1800 X116.169 Y96.527 E63.98889
G0 F5400 X116.169 Y97.093
G1 F1800 X117.093 Y96.17 E64.04319
G0 F5400 X117.659 Y96.17
G1 F1800 X116.169 Y97.659 E64.13077
G0 F5400 X116.169 Y98.224
G1 F1800 X118.224 Y96.17 E64.25157
G0 F5400 X118.79 Y96.17
G1 F1800 X116.169 Y98.79 E64.40564
G0 F5400 X116.169 Y99.356
G1 F1800 X119.356 Y96.17 E64.59299
G0 F5400 X119.921 Y96.17
G1 F1800 X116.169 Y99.921 E64.81357
G0 F5400 X116.169 Y100.487
G1 F1800 X120.487 Y96.17 E65.06742
G0 F5400 X121.053 Y96.17
G1 F1800 X116.169 Y101.053 E65.35455
G0 F5400 X116.169 Y101.619
G1 F1800 X121.618 Y96.17 E65.67493
G0 F5400 X122.184 Y96.17
G1 F1800 X116.169 Y102.184 E66.02856
G0 F5400 X116.169 Y102.75
G1 F1800 X122.75 Y96.17 E66.41547
G0 F5400 X123.315 Y96.17
G1 F1800 X116.169 Y103.316 E66.83563
G0 F5400 X116.169 Y103.881
G1 F1800 X123.881 Y96.17 E67.28903
G0 F5400 X124.447 Y96.17
G1 F1800 X116.169 Y104.447 E67.77572
G0 F5400 X116.169 Y105.013
G1 F1800 X125.012 Y96.17 E68.29565
G0 F5400 X125.578 Y96.17
G1 F1800 X116.169 Y105.578 E68.84884
G0 F5400 X116.169 Y106.144
G1 F1800 X126.144 Y96.17 E69.4353
G0 F5400 X126.709 Y96.17
G1 F1800 X116.169 Y106.71 E70.05501
G0 F5400 X116.169 Y107.275
G1 F1800 X127.275 Y96.17 E70.70797
G0 F5400 X127.841 Y96.17
G1 F1800 X116.169 Y107.841 E71.39421
G0 F5400 X116.169 Y108.407
G1 F1800 X128.407 Y96.17 E72.11373
G0 F5400 X128.972 Y96.17
G1 F1800 X116.169 Y108.972 E72.86647
G0 F5400 X116.169 Y109.538
G1 F1800 X129.538 Y96.17 E73.65248
G0 F5400 X130.104 Y96.17
G1 F1800 X116.169 Y110.104 E74.47178
G0 F5400 X116.169 Y110.669
G1 F1800 X130.669 Y96.17 E75.3243
G0 F5400 X131.235 Y96.17
G1 F1800 X116.169 Y111.235 E76.21009
G0 F5400 X116.169 Y111.801
G1 F1800 X131.801 Y96.17 E77.12916
G0 F5400 X132.366 Y96.17
G1 F1800 X116.169 Y112.367 E78.08148
G0 F5400 X116.169 Y112.932
G1 F1800 X132.932 Y96.17 E79.06705
G0 F5400 X133.498 Y96.17
G1 F1800 X116.169 Y113.498 E80.0859
G0 F5400 X116.403 Y113.83
G1 F1800 X133.829 Y96.404 E81.11048
G0 F5400 X133.829 Y96.97
G1 F1800 X116.969 Y113.83 E82.10179
G0 F5400 X117.535 Y113.83
G1 F1800 X133.829 Y97.536 E83.05981
G0 F5400 X133.829 Y98.101
G1 F1800 X118.1 Y113.83 E83.98462
G0 F5400 X118.666 Y113.83
G1 F1800 X133.829 Y98.667 E84.87614
G0 F5400 X133.829 Y99.233
G1 F1800 X119.232 Y113.83 E85.73439
G0 F5400 X119.798 Y113.83
G1 F1800 X133.829 Y99.798 E86.55939
G0 F5400 X133.829 Y100.364
G1 F1800 X120.363 Y113.83 E87.35114
G0 F5400 X120.929 Y113.83
G1 F1800 X133.829 Y100.93 E88.10961
G0 F5400 X133.829 Y101.495
G1 F1800 X121.495 Y113.83 E88.83483
G0 F5400 X122.06 Y113.83
G1 F1800 X133.829 Y102.061 E89.5268
G0 F5400 X133.829 Y102.627
G1 F1800 X122.626 Y113.83 E90.1855
G0 F5400 X123.192 Y113.83
G1 F1800 X133.829 Y103.193 E90.81091
G0 F5400 X133.829 Y103.758
G1 F1800 X123.757 Y113.83 E91.40311
G0 F5400 X124.323 Y113.83
G1 F1800 X133.829 Y104.324 E91.96202
G0 F5400 X133.829 Y104.89
G1 F1800 X124.889 Y113.83 E92.48766
G0 F5400 X125.454 Y113.83
G1 F1800 X133.829 Y105.455 E92.98008
G0 F5400 X133.829 Y106.021
G1 F1800 X126.02 Y113.83 E93.43922
G0 F5400 X126.586 Y113.83
G1 F1800 X133.829 Y106.587 E93.86508
G0 F5400 X133.829 Y107.152
G1 F1800 X127.151 Y113.83 E94.25772
G0 F5400 X127.717 Y113.83
G1 F1800 X133.829 Y107.718 E94.61708
G0 F5400 X133.829 Y108.284
G1 F1800 X128.283 Y113.83 E94.94317
G0 F5400 X128.848 Y113.83
G1 F1800 X133.829 Y108.849 E95.23603
G0 F5400 X133.829 Y109.415
G1 F1800 X129.414 Y113.83 E95.49561
G0 F5400 X129.98 Y113.83
G1 F1800 X133.829 Y109.981 E95.72192
G0 F5400 X133.829 Y110.546
G1 F1800 X130.546 Y113.83 E95.91498
G0 F5400 X131.111 Y113.83
G1 F1800 X133.829 Y111.112 E96.07479
G0 F5400 X133.829 Y111.678
G1 F1800 X131.677 Y113.83 E96.20131
G0 F5400 X132.243 Y113.83
G1 F1800 X133.829 Y112.244 E96.29457
G0 F5400 X133.829 Y112.809
G1 F1800 X132.808 Y113.83 E96.3546
G0 F5400 X133.374 Y113.83
G1 F1800 X133.829 Y113.375 E96.38135
;MESH:NONMESH
G0 F600 X133.829 Y113.375 Z0.75
G0 F5400 X115.67 Y114.33
G0 X115.6 Y114.4
;TIME_ELAPSED:89.850020
;LAYER:2
;TYPE:WALL-INNER
;MESH:20mmTestCube_repaired.stl
G1 F3600 X115.6 Y95.6 E97.16296
G1 X134.4 Y95.6 E97.94458
G1 X134.4 Y114.4 E98.72619
G1 X115.6 Y114.4 E99.5078
G0 F7200 X115.2 Y114.8
;TYPE:WALL-OUTER
G1 F1800 X115.2 Y95.2 E100.32267
G1 X134.8 Y95.2 E101.13755
G1 X134.8 Y114.8 E101.95242
G1 X115.2 Y114.8 E102.76729
G0 F7200 X115.2 Y114.6
G0 X115.99 Y114.01
;TYPE:SKIN
G1 F1800 X115.99 Y95.99 E103.51648
G1 X134.01 Y95.99 E104.26566
G1 X134.01 Y114.01 E105.01485
G1 X115.99 Y114.01 E105.76403
G0 F7200 X116.658 Y113.83
G1 F1800 X116.169 Y113.34 E105.79281
G0 F7200 X116.169 Y112.775
