;FLAVOR:Marlin
;TIME:726
;Filament used: 1.34113m
;Layer height: 0.35
;MINX:111
;MINY:91
;MINZ:0.35
;MAXX:139
;MAXY:119
;MAXZ:19.95
;Generated with Cura_SteamEngine 4.4.1
M82 ;absolute extrusion mode
G21 ; set units to millimeters
G90 ; use absolute positioning
M82 ; absolute extrusion mode
M104 S200 ; set extruder temp
M140 S60 ; set bed temp
M190 S60 ; wait for bed temp
M109 S200 ; wait for extruder temp
G28 W ; home all without mesh bed level
G80 ; mesh bed leveling
G92 E0.0 ; reset extruder distance position
G1 Y-3.0 F1000.0 ; go outside print area
G1 X60.0 E9.0 F1000.0 ; intro line
G1 X100.0 E21.5 F1000.0 ; intro line
G92 E0.0 ; reset extruder distance position
G92 E0
G92 E0
G1 F2100 E-0.8
;LAYER_COUNT:57
;LAYER:0
M107
G0 F3600 X112.004 Y92.369 Z0.35
;TYPE:SKIRT
G1 F2100 E0
G1 F1800 X112.406 Y91.972 E0.03289
G1 X112.86 Y91.635 E0.06579
G1 X113.357 Y91.366 E0.09869
G1 X113.887 Y91.169 E0.1316
G1 X114.44 Y91.05 E0.16452
G1 X114.897 Y91.011 E0.19122
G1 X115.218 Y91.002 E0.20991
G1 X115.33 Y91 E0.21643
G1 X134.35 Y91 E1.32349
G1 X135.048 Y91.01 E1.36413
G1 X135.612 Y91.058 E1.39707
G1 X136.162 Y91.185 E1.42993
G1 X136.69 Y91.389 E1.46287
G1 X137.184 Y91.664 E1.49578
G1 X137.633 Y92.007 E1.52867
G1 X138.03 Y92.409 E1.56156
G1 X138.367 Y92.864 E1.59451
G1 X138.635 Y93.361 E1.62738
G1 X138.831 Y93.891 E1.66027
G1 X138.951 Y94.444 E1.6932
G1 X138.989 Y94.898 E1.71972
G1 X138.998 Y95.218 E1.73836
G1 X139 Y95.33 E1.74488
G1 X139 Y114.314 E2.84984
G1 X138.991 Y115.041 E2.89216
G1 X138.944 Y115.604 E2.92505
G1 X138.818 Y116.155 E2.95794
G1 X138.616 Y116.683 E2.99085
G1 X138.341 Y117.177 E3.02376
G1 X137.999 Y117.627 E3.05666
G1 X137.597 Y118.025 E3.08958
G1 X137.144 Y118.362 E3.12245
G1 X136.647 Y118.632 E3.15537
G1 X136.117 Y118.829 E3.18828
G1 X135.565 Y118.95 E3.22117
G1 X135.103 Y118.989 E3.24816
G1 X134.782 Y118.998 E3.26685
G1 X134.67 Y119 E3.27337
G1 X115.655 Y119 E4.38014
G1 X114.957 Y118.991 E4.42077
G1 X114.394 Y118.943 E4.45366
G1 X113.843 Y118.817 E4.48656
G1 X113.315 Y118.615 E4.51946
G1 X112.821 Y118.34 E4.55237
G1 X112.371 Y117.998 E4.58527
G1 X111.973 Y117.596 E4.6182
G1 X111.637 Y117.142 E4.65107
G1 X111.367 Y116.645 E4.68399
G1 X111.17 Y116.115 E4.7169
G1 X111.05 Y115.563 E4.74978
G1 X111.01 Y115.099 E4.77689
G1 X111.001 Y114.766 E4.79628
G1 X111 Y114.658 E4.80257
G1 X111 Y95.62 E5.91068
G1 X111.009 Y94.955 E5.94939
G1 X111.057 Y94.392 E5.98227
G1 X111.183 Y93.841 E6.01517
G1 X111.386 Y93.313 E6.0481
G1 X111.662 Y92.819 E6.08104
G1 X112.004 Y92.369 E6.11393
G0 F3600 X112.397 Y92.531
G1 F1800 X112.794 Y92.171 E6.14513
G1 X113.241 Y91.873 E6.1764
G1 X113.726 Y91.645 E6.20759
G1 X114.24 Y91.492 E6.23881
G1 X114.908 Y91.41 E6.27798
G1 X115.229 Y91.401 E6.29667
G1 X115.33 Y91.4 E6.30255
G1 X134.345 Y91.4 E7.40932
G1 X135.043 Y91.41 E7.44995
G1 X135.577 Y91.458 E7.48116
G1 X136.098 Y91.584 E7.51236
G1 X136.595 Y91.787 E7.54361
G1 X137.056 Y92.061 E7.57482
G1 X137.471 Y92.4 E7.60601
G1 X137.831 Y92.798 E7.63725
G1 X138.128 Y93.244 E7.66844
G1 X138.356 Y93.73 E7.69968
G1 X138.508 Y94.244 E7.73088
G1 X138.59 Y94.909 E7.76988
G1 X138.599 Y95.229 E7.78851
G1 X138.6 Y95.33 E7.79439
G1 X138.6 Y114.309 E8.89907
G1 X138.591 Y115.036 E8.94139
G1 X138.544 Y115.57 E8.97259
G1 X138.419 Y116.091 E9.00377
G1 X138.217 Y116.588 E9.035
G1 X137.944 Y117.05 E9.06624
G1 X137.606 Y117.466 E9.09743
G1 X137.209 Y117.827 E9.12867
G1 X136.763 Y118.125 E9.15989
G1 X136.278 Y118.353 E9.19108
G1 X135.764 Y118.507 E9.22231
G1 X135.092 Y118.59 E9.26172
G1 X134.771 Y118.599 E9.28041
G1 X134.67 Y118.6 E9.28629
G1 X115.661 Y118.6 E10.39272
G1 X114.963 Y118.591 E10.43335
G1 X114.428 Y118.544 E10.46461
G1 X113.907 Y118.418 E10.49581
G1 X113.41 Y118.216 E10.52703
G1 X112.949 Y117.943 E10.55822
G1 X112.533 Y117.604 E10.58945
G1 X112.172 Y117.208 E10.62064
G1 X111.874 Y116.762 E10.65186
G1 X111.646 Y116.276 E10.68311
G1 X111.493 Y115.762 E10.71432
G1 X111.41 Y115.088 E10.75385
G1 X111.401 Y114.755 E10.77324
G1 X111.4 Y114.658 E10.77889
G1 X111.4 Y95.625 E11.88671
G1 X111.409 Y94.96 E11.92542
G1 X111.457 Y94.426 E11.95662
G1 X111.583 Y93.905 E11.98782
G1 X111.785 Y93.408 E12.01905
G1 X112.058 Y92.947 E12.05023
G1 X112.397 Y92.531 E12.08147
G0 F3600 X112.454 Y93.082
G1 F1800 X112.789 Y92.704 E12.11087
G1 X113.18 Y92.383 E12.14031
G1 X113.617 Y92.128 E12.16976
G1 X114.088 Y91.944 E12.19919
G1 X114.582 Y91.838 E12.2286
G1 X114.919 Y91.81 E12.24828
G1 X115.24 Y91.801 E12.26697
G1 X115.33 Y91.8 E12.27221
G1 X134.339 Y91.8 E13.37864
G1 X135.037 Y91.81 E13.41927
G1 X135.54 Y91.857 E13.44867
G1 X136.03 Y91.983 E13.47812
G1 X136.494 Y92.185 E13.50758
G1 X136.92 Y92.457 E13.537
G1 X137.298 Y92.792 E13.56639
G1 X137.618 Y93.183 E13.5958
G1 X137.873 Y93.62 E13.62525
G1 X138.056 Y94.091 E13.65466
G1 X138.163 Y94.585 E13.68408
G1 X138.19 Y94.92 E13.70365
G1 X138.199 Y95.24 E13.72228
G1 X138.2 Y95.33 E13.72752
G1 X138.2 Y114.304 E14.8319
G1 X138.191 Y115.031 E14.87422
G1 X138.145 Y115.534 E14.90362
G1 X138.02 Y116.024 E14.93305
G1 X137.819 Y116.488 E14.96249
G1 X137.548 Y116.915 E14.99192
G1 X137.213 Y117.294 E15.02137
G1 X136.823 Y117.615 E15.05077
G1 X136.387 Y117.871 E15.08019
G1 X135.916 Y118.054 E15.10961
G1 X135.422 Y118.162 E15.13904
G1 X135.081 Y118.19 E15.15895
G1 X134.76 Y118.199 E15.17764
G1 X134.67 Y118.2 E15.18288
G1 X115.666 Y118.2 E16.28902
G1 X114.968 Y118.191 E16.32965
G1 X114.464 Y118.144 E16.35911
G1 X113.974 Y118.019 E16.38854
G1 X113.51 Y117.818 E16.41798
G1 X113.084 Y117.547 E16.44736
G1 X112.705 Y117.212 E16.4768
G1 X112.384 Y116.821 E16.50625
G1 X112.129 Y116.385 E16.53565
G1 X111.945 Y115.914 E16.56508
G1 X111.838 Y115.42 E16.5945
G1 X111.81 Y115.077 E16.61453
G1 X111.801 Y114.744 E16.63392
G1 X111.8 Y114.658 E16.63893
G1 X111.8 Y95.631 E17.7464
G1 X111.809 Y94.966 E17.78511
G1 X111.856 Y94.462 E17.81457
G1 X111.982 Y93.973 E17.84396
G1 X112.183 Y93.509 E17.8734
G1 X112.454 Y93.082 E17.90283
G1 F2100 E17.10283
;MESH:20mmTestCube_repaired.stl
G0 F3600 X114.335 Y95.614
G0 X115.614 Y95.614
G0 X115.67 Y114.33
G0 X115.6 Y114.4
;TYPE:WALL-INNER
G1 F2100 E17.90283
G1 F1800 X115.6 Y95.6 E18.99709
G1 X134.4 Y95.6 E20.09135
G1 X134.4 Y114.4 E21.18561
G1 X115.6 Y114.4 E22.27987
G0 F3600 X115.2 Y114.8
;TYPE:WALL-OUTER
G1 F1800 X115.2 Y95.2 E23.42069
G1 X134.8 Y95.2 E24.56151
G1 X134.8 Y114.8 E25.70233
G1 X115.2 Y114.8 E26.84316
G0 F3600 X115.2 Y114.6
G0 X115.99 Y114.01
;TYPE:SKIN
G1 F1800 X115.99 Y95.99 E27.89202
G1 X134.01 Y95.99 E28.94087
G1 X134.01 Y114.01 E29.98973
G1 X115.99 Y114.01 E31.03859
G0 F3600 X116.658 Y113.83
G1 F1800 X116.169 Y113.34 E31.07888
G0 F3600 X116.169 Y112.775
G1 F1800 X117.224 Y113.83 E31.16573
G0 F3600 X117.789 Y113.83
G1 F1800 X116.169 Y112.209 E31.29912
G0 F3600 X116.169 Y111.643
G1 F1800 X118.355 Y113.83 E31.4791
G0 F3600 X118.921 Y113.83
G1 F1800 X116.169 Y111.077 E31.70567
G0 F3600 X116.169 Y110.512
G1 F1800 X119.486 Y113.83 E31.97875
G0 F3600 X120.052 Y113.83
G1 F1800 X116.169 Y109.946 E32.29842
G0 F3600 X116.169 Y109.38
G1 F1800 X120.618 Y113.83 E32.66467
G0 F3600 X121.183 Y113.83
G1 F1800 X116.169 Y108.815 E33.07744
G0 F3600 X116.169 Y108.249
G1 F1800 X121.749 Y113.83 E33.5368
G0 F3600 X122.315 Y113.83
G1 F1800 X116.169 Y107.683 E34.04275
G0 F3600 X116.169 Y107.118
G1 F1800 X122.881 Y113.83 E34.59524
G0 F3600 X123.446 Y113.83
G1 F1800 X116.169 Y106.552 E35.19429
G0 F3600 X116.169 Y105.986
G1 F1800 X124.012 Y113.83 E35.83992
G0 F3600 X124.578 Y113.83
G1 F1800 X116.169 Y105.421 E36.5321
G0 F3600 X116.169 Y104.855
G1 F1800 X125.143 Y113.83 E37.27084
G0 F3600 X125.709 Y113.83
G1 F1800 X116.169 Y104.289 E38.05616
G0 F3600 X116.169 Y103.724
G1 F1800 X126.275 Y113.83 E38.88803
G0 F3600 X126.84 Y113.83
G1 F1800 X116.169 Y103.158 E39.76645
G0 F3600 X116.169 Y102.592
G1 F1800 X127.406 Y113.83 E40.69146
G0 F3600 X127.972 Y113.83
G1 F1800 X116.169 Y102.027 E41.66302
G0 F3600 X116.169 Y101.461
G1 F1800 X128.537 Y113.83 E42.68113
G0 F3600 X129.103 Y113.83
G1 F1800 X116.169 Y100.895 E43.74583
G0 F3600 X116.169 Y100.329
G1 F1800 X129.669 Y113.83 E44.85712
G0 F3600 X130.234 Y113.83
G1 F1800 X116.169 Y99.764 E46.01492
G0 F3600 X116.169 Y99.198
G1 F1800 X130.8 Y113.83 E47.2193
G0 F3600 X131.366 Y113.83
G1 F1800 X116.169 Y98.632 E48.47028
G0 F3600 X116.169 Y98.067
G1 F1800 X131.931 Y113.83 E49.76776
G0 F3600 X132.497 Y113.83
G1 F1800 X116.169 Y97.501 E51.11184
G0 F3600 X116.169 Y96.935
G1 F1800 X133.063 Y113.83 E52.5025
G0 F3600 X133.629 Y113.83
G1 F1800 X116.169 Y96.37 E53.93972
G0 F3600 X116.534 Y96.17
G1 F1800 X133.829 Y113.465 E55.36335
G0 F3600 X133.829 Y112.899
G1 F1800 X117.1 Y96.17 E56.74039
G0 F3600 X117.666 Y96.17
G1 F1800 X133.829 Y112.333 E58.07084
G0 F3600 X133.829 Y111.768
G1 F1800 X118.231 Y96.17 E59.35478
G0 F3600 X118.797 Y96.17
G1 F1800 X133.829 Y111.202 E60.59214
G0 F3600 X133.829 Y110.636
G1 F1800 X119.363 Y96.17 E61.7829
G0 F3600 X119.928 Y96.17
G1 F1800 X133.829 Y110.071 E62.92716
G0 F3600 X133.829 Y109.505
G1 F1800 X120.494 Y96.17 E64.02482
G0 F3600 X121.06 Y96.17
G1 F1800 X133.829 Y108.939 E65.0759
G0 F3600 X133.829 Y108.374
G1 F1800 X121.625 Y96.17 E66.08047
G0 F3600 X122.191 Y96.17
G1 F1800 X133.829 Y107.808 E67.03844
G0 F3600 X133.829 Y107.242
G1 F1800 X122.757 Y96.17 E67.94983
G0 F3600 X123.322 Y96.17
G1 F1800 X133.829 Y106.676 E68.81467
G0 F3600 X133.829 Y106.111
G1 F1800 X123.888 Y96.17 E69.63296
G0 F3600 X124.454 Y96.17
G1 F1800 X133.829 Y105.545 E70.40466
G0 F3600 X133.829 Y104.979
G1 F1800 X125.02 Y96.17 E71.12977
G0 F3600 X125.585 Y96.17
G1 F1800 X133.829 Y104.414 E71.80837
G0 F3600 X133.829 Y103.848
G1 F1800 X126.151 Y96.17 E72.44038
G0 F3600 X126.717 Y96.17
G1 F1800 X133.829 Y103.282 E73.0258
G0 F3600 X133.829 Y102.717
G1 F1800 X127.282 Y96.17 E73.56472
G0 F3600 X127.848 Y96.17
G1 F1800 X133.829 Y102.151 E74.05704
G0 F3600 X133.829 Y101.585
G1 F1800 X128.414 Y96.17 E74.50278
G0 F3600 X128.979 Y96.17
G1 F1800 X133.829 Y101.02 E74.902
G0 F3600 X133.829 Y100.454
G1 F1800 X129.545 Y96.17 E75.25464
G0 F3600 X130.111 Y96.17
G1 F1800 X133.829 Y99.888 E75.56068
G0 F3600 X133.829 Y99.323
G1 F1800 X130.676 Y96.17 E75.82022
G0 F3600 X131.242 Y96.17
G1 F1800 X133.829 Y98.757 E76.03317
G0 F3600 X133.829 Y98.191
G1 F1800 X131.808 Y96.17 E76.19953
G0 F3600 X132.373 Y96.17
G1 F1800 X133.829 Y97.625 E76.31934
G0 F3600 X133.829 Y97.06
G1 F1800 X132.939 Y96.17 E76.3926
G0 F3600 X133.505 Y96.17
M104 S200
G1 F1800 X133.829 Y96.494 E76.41927
;MESH:NONMESH
G0 F600 X133.829 Y96.494 Z0.7
G0 F3600 X115.67 Y114.33
G0 X115.6 Y114.4
;TIME_ELAPSED:52.840987
;LAYER:1
M140 S60
M106 S255
;TYPE:WALL-INNER
;MESH:20mmTestCube_repaired.stl
G1 F2700 X115.6 Y95.6 E77.51352
G1 X134.4 Y95.6 E78.60778
G1 X134.4 Y114.4 E79.70204
G1 X115.6 Y114.4 E80.7963
G0 F5400 X115.2 Y114.8
;TYPE:WALL-OUTER
G1 F1800 X115.2 Y95.2 E81.93712
G1 X134.8 Y95.2 E83.07794
G1 X134.8 Y114.8 E84.21877
G1 X115.2 Y114.8 E85.35959
G0 F5400 X115.2 Y114.6
G0 X115.99 Y114.01
;TYPE:SKIN
G1 F1800 X115.99 Y95.99 E86.40845
G1 X134.01 Y95.99 E87.45731
G1 X134.01 Y114.01 E88.50617
G1 X115.99 Y114.01 E89.55502
G0 F5400 X116.527 Y96.17
G1 F1800 X116.169 Y96.527 E89.58445
G0 F5400 X116.169 Y97.093
G1 F1800 X117.093 Y96.17 E89.66047
G0 F5400 X117.659 Y96.17
G1 F1800 X116.169 Y97.659 E89.78308
G0 F5400 X116.169 Y98.224
G1 F1800 X118.224 Y96.17 E89.95219
G0 F5400 X118.79 Y96.17
G1 F1800 X116.169 Y98.79 E90.1679
G0 F5400 X116.169 Y99.356
G1 F1800 X119.356 Y96.17 E90.43019
G0 F5400 X119.921 Y96.17
G1 F1800 X116.169 Y99.921 E90.739
G0 F5400 X116.169 Y100.487
G1 F1800 X120.487 Y96.17 E91.09439
G0 F5400 X121.053 Y96.17
G1 F1800 X116.169 Y101.053 E91.49637
G0 F5400 X116.169 Y101.619
G1 F1800 X121.618 Y96.17 E91.94491
G0 F5400 X122.184 Y96.17
G1 F1800 X116.169 Y102.184 E92.43999
G0 F5400 X116.169 Y102.75
G1 F1800 X122.75 Y96.17 E92.98166
G0 F5400 X123.315 Y96.17
G1 F1800 X116.169 Y103.316 E93.56988
G0 F5400 X116.169 Y103.881
G1 F1800 X123.881 Y96.17 E94.20465
G0 F5400 X124.447 Y96.17
G1 F1800 X116.169 Y104.447 E94.88601
G0 F5400 X116.169 Y105.013
G1 F1800 X125.012 Y96.17 E95.61392
G0 F5400 X125.578 Y96.17
G1 F1800 X116.169 Y105.578 E96.38837
G0 F5400 X116.169 Y106.144
G1 F1800 X126.144 Y96.17 E97.20942
G0 F5400 X126.709 Y96.17
G1 F1800 X116.169 Y106.71 E98.07702
G0 F5400 X116.169 Y107.275
G1 F1800 X127.275 Y96.17 E98.99116
G0 F5400 X127.841 Y96.17
G1 F1800 X116.169 Y107.841 E99.9519
G0 F5400 X116.169 Y108.407
G1 F1800 X128.407 Y96.17 E100.95922
G0 F5400 X128.972 Y96.17
G1 F1800 X116.169 Y108.972 E102.01306
G0 F5400 X116.169 Y109.538
G1 F1800 X129.538 Y96.17 E103.11348
G0 F5400 X130.104 Y96.17
G1 F1800 X116.169 Y110.104 E104.26049
G0 F5400 X116.169 Y110.669
G1 F1800 X130.669 Y96.17 E105.45401
G0 F5400 X131.235 Y96.17
G1 F1800 X116.169 Y111.235 E106.69412
G0 F5400 X116.169 Y111.801
G1 F1800 X131.801 Y96.17 E107.98083
G0 F5400 X132.366 Y96.17
G1 F1800 X116.169 Y112.367 E109.31408
G0 F5400 X116.169 Y112.932
G1 F1800 X132.932 Y96.17 E110.69387
G0 F5400 X133.498 Y96.17
G1 F1800 X116.169 Y113.498 E112.12026
G0 F5400 X116.403 Y113.83
G1 F1800 X133.829 Y96.404 E113.55468
G0 F5400 X133.829 Y96.97
G1 F1800 X116.969 Y113.83 E114.9425
G0 F5400 X117.535 Y113.83
G1 F1800 X133.829 Y97.536 E116.28374
G0 F5400 X133.829 Y98.101
G1 F1800 X118.1 Y113.83 E117.57846
G0 F5400 X118.666 Y113.83
G1 F1800 X133.829 Y98.667 E118.8266
G0 F5400 X133.829 Y99.233
G1 F1800 X119.232 Y113.83 E120.02815
G0 F5400 X119.798 Y113.83
G1 F1800 X133.829 Y99.798 E121.18315
G0 F5400 X133.829 Y100.364
G1 F1800 X120.363 Y113.83 E122.2916
G0 F5400 X120.929 Y113.83
G1 F1800 X133.829 Y100.93 E123.35345
G0 F5400 X133.829 Y101.495
G1 F1800 X121.495 Y113.83 E124.36876
G0 F5400 X122.06 Y113.83
G1 F1800 X133.829 Y102.061 E125.33752
G0 F5400 X133.829 Y102.627
G1 F1800 X122.626 Y113.83 E126.2597
G0 F5400 X123.192 Y113.83
G1 F1800 X133.829 Y103.193 E127.13528
G0 F5400 X133.829 Y103.758
G1 F1800 X123.757 Y113.83 E127.96435
G0 F5400 X124.323 Y113.83
G1 F1800 X133.829 Y104.324 E128.74683
G0 F5400 X133.829 Y104.89
G1 F1800 X124.889 Y113.83 E129.48273
G0 F5400 X125.454 Y113.83
G1 F1800 X133.829 Y105.455 E130.17211
G0 F5400 X133.829 Y106.021
G1 F1800 X126.02 Y113.83 E130.81491
G0 F5400 X126.586 Y113.83
G1 F1800 X133.829 Y106.587 E131.41111
G0 F5400 X133.829 Y107.152
G1 F1800 X127.151 Y113.83 E131.96081
G0 F5400 X127.717 Y113.83
G1 F1800 X133.829 Y107.718 E132.46391
G0 F5400 X133.829 Y108.284
G1 F1800 X128.283 Y113.83 E132.92043
G0 F5400 X128.848 Y113.83
G1 F1800 X133.829 Y108.849 E133.33044
G0 F5400 X133.829 Y109.415
G1 F1800 X129.414 Y113.83 E133.69386
G0 F5400 X129.98 Y113.83
G1 F1800 X133.829 Y109.981 E134.01069
G0 F5400 X133.829 Y110.546
G1 F1800 X130.546 Y113.83 E134.28097
G0 F5400 X131.111 Y113.83
G1 F1800 X133.829 Y111.112 E134.5047
G0 F5400 X133.829 Y111.678
G1 F1800 X131.677 Y113.83 E134.68184
G0 F5400 X132.243 Y113.83
G1 F1800 X133.829 Y112.244 E134.81239
G0 F5400 X133.829 Y112.809
G1 F1800 X132.808 Y113.83 E134.89644
G0 F5400 X133.374 Y113.83
G1 F1800 X133.829 Y113.375 E134.93389
;MESH:NONMESH
G0 F600 X133.829 Y113.375 Z1.05
G0 F5400 X115.67 Y114.33
G0 X115.6 Y114.4
;TIME_ELAPSED:89.869680
;LAYER:2
;TYPE:WALL-INNER
;MESH:20mmTestCube_repaired.stl
G1 F3600 X115.6 Y95.6 E136.02815
G1 X134.4 Y95.6 E137.12241
G1 X134.4 Y114.4 E138.21666
G1 X115.6 Y114.4 E139.31092
G0 F7200 X115.2 Y114.8
;TYPE:WALL-OUTER
G1 F1800 X115.2 Y95.2 E140.45174
G1 X134.8 Y95.2 E141.59257
G1 X134.8 Y114.8 E142.73339
G1 X115.2 Y114.8 E143.87421
G0 F7200 X115.2 Y114.6
G0 X115.99 Y114.01
;TYPE:SKIN
G1 F1800 X115.99 Y95.99 E144.92307
G1 X134.01 Y95.99 E145.97193
G1 X134.01 Y114.01 E147.02079
G1 X115.99 Y114.01 E148.06965
