;FLAVOR:Marlin
;TIME:2368
;Filament used: 1.2747m
;Layer height: 0.1
;MINX:111
;MINY:91
;MINZ:0.1
;MAXX:139
;MAXY:119
;MAXZ:20
;Generated with Cura_SteamEngine 4.4.1
M82 ;absolute extrusion mode
G21 ; set units to millimeters
G90 ; use absolute positioning
M82 ; absolute extrusion mode
M104 S200 ; set extruder temp
M140 S60 ; set bed temp
M190 S60 ; wait for bed temp
M109 S200 ; wait for extruder temp
G28 W ; home all without mesh bed level
G80 ; mesh bed leveling
G92 E0.0 ; reset extruder distance position
G1 Y-3.0 F1000.0 ; go outside print area
G1 X60.0 E9.0 F1000.0 ; intro line
G1 X100.0 E21.5 F1000.0 ; intro line
G92 E0.0 ; reset extruder distance position
G92 E0
G92 E0
G1 F2100 E-0.8
;LAYER_COUNT:200
;LAYER:0
M107
G0 F3600 X112.004 Y92.369 Z0.1
;TYPE:SKIRT
G1 F2100 E0
G1 F1800 X112.406 Y91.972 E0.0094
G1 X112.86 Y91.635 E0.0188
G1 X113.357 Y91.366 E0.0282
G1 X113.887 Y91.169 E0.0376
G1 X114.44 Y91.05 E0.04701
G1 X114.897 Y91.011 E0.05463
G1 X115.218 Y91.002 E0.05997
G1 X115.33 Y91 E0.06184
G1 X134.35 Y91 E0.37814
G1 X135.048 Y91.01 E0.38975
G1 X135.612 Y91.058 E0.39916
G1 X136.162 Y91.185 E0.40855
G1 X136.69 Y91.389 E0.41796
G1 X137.184 Y91.664 E0.42737
G1 X137.633 Y92.007 E0.43676
G1 X138.03 Y92.409 E0.44616
G1 X138.367 Y92.864 E0.45557
G1 X138.635 Y93.361 E0.46497
G1 X138.831 Y93.891 E0.47436
G1 X138.951 Y94.444 E0.48377
G1 X138.989 Y94.898 E0.49135
G1 X138.998 Y95.218 E0.49667
G1 X139 Y95.33 E0.49854
G1 X139 Y114.314 E0.81424
G1 X138.991 Y115.041 E0.82633
G1 X138.944 Y115.604 E0.83573
G1 X138.818 Y116.155 E0.84513
G1 X138.616 Y116.683 E0.85453
G1 X138.341 Y117.177 E0.86393
G1 X137.999 Y117.627 E0.87333
G1 X137.597 Y118.025 E0.88274
G1 X137.144 Y118.362 E0.89213
G1 X136.647 Y118.632 E0.90153
G1 X136.117 Y118.829 E0.91094
G1 X135.565 Y118.95 E0.92033
G1 X135.103 Y118.989 E0.92804
G1 X134.782 Y118.998 E0.93338
G1 X134.67 Y119 E0.93525
G1 X115.655 Y119 E1.25147
G1 X114.957 Y118.991 E1.26308
G1 X114.394 Y118.943 E1.27247
G1 X113.843 Y118.817 E1.28187
G1 X113.315 Y118.615 E1.29127
G1 X112.821 Y118.34 E1.30068
G1 X112.371 Y117.998 E1.31008
G1 X111.973 Y117.596 E1.31948
G1 X111.637 Y117.142 E1.32888
G1 X111.367 Y116.645 E1.33828
G1 X111.17 Y116.115 E1.34769
G1 X111.05 Y115.563 E1.35708
G1 X111.01 Y115.099 E1.36483
G1 X111.001 Y114.766 E1.37037
G1 X111 Y114.658 E1.37216
G1 X111 Y95.62 E1.68876
G1 X111.009 Y94.955 E1.69982
G1 X111.057 Y94.392 E1.70922
G1 X111.183 Y93.841 E1.71862
G1 X111.386 Y93.313 E1.72803
G1 X111.662 Y92.819 E1.73744
G1 X112.004 Y92.369 E1.74684
G0 F3600 X112.397 Y92.531
G1 F1800 X112.794 Y92.171 E1.75575
G1 X113.241 Y91.873 E1.76468
G1 X113.726 Y91.645 E1.7736
G1 X114.24 Y91.492 E1.78252
G1 X114.908 Y91.41 E1.79371
G1 X115.229 Y91.401 E1.79905
G1 X115.33 Y91.4 E1.80073
G1 X134.345 Y91.4 E2.11695
G1 X135.043 Y91.41 E2.12856
G1 X135.577 Y91.458 E2.13747
G1 X136.098 Y91.584 E2.14639
G1 X136.595 Y91.787 E2.15532
G1 X137.056 Y92.061 E2.16423
G1 X137.471 Y92.4 E2.17315
G1 X137.831 Y92.798 E2.18207
G1 X138.128 Y93.244 E2.19098
G1 X138.356 Y93.73 E2.19991
G1 X138.508 Y94.244 E2.20882
G1 X138.59 Y94.909 E2.21997
G1 X138.599 Y95.229 E2.22529
G1 X138.6 Y95.33 E2.22697
G1 X138.6 Y114.309 E2.54259
G1 X138.591 Y115.036 E2.55468
G1 X138.544 Y115.57 E2.5636
G1 X138.419 Y116.091 E2.57251
G1 X138.217 Y116.588 E2.58143
G1 X137.944 Y117.05 E2.59035
G1 X137.606 Y117.466 E2.59927
G1 X137.209 Y117.827 E2.60819
G1 X136.763 Y118.125 E2.61711
G1 X136.278 Y118.353 E2.62602
G1 X135.764 Y118.507 E2.63495
G1 X135.092 Y118.59 E2.64621
G1 X134.771 Y118.599 E2.65155
G1 X134.67 Y118.6 E2.65323
G1 X115.661 Y118.6 E2.96935
G1 X114.963 Y118.591 E2.98096
G1 X114.428 Y118.544 E2.98989
G1 X113.907 Y118.418 E2.9988
G1 X113.41 Y118.216 E3.00772
G1 X112.949 Y117.943 E3.01663
G1 X112.533 Y117.604 E3.02556
G1 X112.172 Y117.208 E3.03447
G1 X111.874 Y116.762 E3.04339
G1 X111.646 Y116.276 E3.05232
G1 X111.493 Y115.762 E3.06124
G1 X111.41 Y115.088 E3.07253
G1 X111.401 Y114.755 E3.07807
G1 X111.4 Y114.658 E3.07968
G1 X111.4 Y95.625 E3.3962
G1 X111.409 Y94.96 E3.40726
G1 X111.457 Y94.426 E3.41618
G1 X111.583 Y93.905 E3.42509
G1 X111.785 Y93.408 E3.43401
G1 X112.058 Y92.947 E3.44292
G1 X112.397 Y92.531 E3.45185
G0 F3600 X112.454 Y93.082
G1 F1800 X112.789 Y92.704 E3.46025
G1 X113.18 Y92.383 E3.46866
G1 X113.617 Y92.128 E3.47707
G1 X114.088 Y91.944 E3.48548
G1 X114.582 Y91.838 E3.49389
G1 X114.919 Y91.81 E3.49951
G1 X115.24 Y91.801 E3.50485
G1 X115.33 Y91.8 E3.50635
G1 X134.339 Y91.8 E3.82247
G1 X135.037 Y91.81 E3.83408
G1 X135.54 Y91.857 E3.84248
G1 X136.03 Y91.983 E3.85089
G1 X136.494 Y92.185 E3.85931
G1 X136.92 Y92.457 E3.86771
G1 X137.298 Y92.792 E3.87611
G1 X137.618 Y93.183 E3.88451
G1 X137.873 Y93.62 E3.89293
G1 X138.056 Y94.091 E3.90133
G1 X138.163 Y94.585 E3.90974
G1 X138.19 Y94.92 E3.91533
G1 X138.199 Y95.24 E3.92065
G1 X138.2 Y95.33 E3.92215
G1 X138.2 Y114.304 E4.23769
G1 X138.191 Y115.031 E4.24978
G1 X138.145 Y115.534 E4.25818
G1 X138.02 Y116.024 E4.26659
G1 X137.819 Y116.488 E4.275
G1 X137.548 Y116.915 E4.28341
G1 X137.213 Y117.294 E4.29182
G1 X136.823 Y117.615 E4.30022
G1 X136.387 Y117.871 E4.30863
G1 X135.916 Y118.054 E4.31703
G1 X135.422 Y118.162 E4.32544
G1 X135.081 Y118.19 E4.33113
G1 X134.76 Y118.199 E4.33647
G1 X134.67 Y118.2 E4.33797
G1 X115.666 Y118.2 E4.654
G1 X114.968 Y118.191 E4.66561
G1 X114.464 Y118.144 E4.67403
G1 X113.974 Y118.019 E4.68244
G1 X113.51 Y117.818 E4.69085
G1 X113.084 Y117.547 E4.69925
G1 X112.705 Y117.212 E4.70766
G1 X112.384 Y116.821 E4.71607
G1 X112.129 Y116.385 E4.72447
G1 X111.945 Y115.914 E4.73288
G1 X111.838 Y115.42 E4.74129
G1 X111.81 Y115.077 E4.74701
G1 X111.801 Y114.744 E4.75255
G1 X111.8 Y114.658 E4.75398
G1 X111.8 Y95.631 E5.0704
G1 X111.809 Y94.966 E5.08146
G1 X111.856 Y94.462 E5.08988
G1 X111.982 Y93.973 E5.09828
G1 X112.183 Y93.509 E5.10668
G1 X112.454 Y93.082 E5.1151
G1 F2100 E4.3151
;MESH:20mmTestCube_repaired.stl
G0 F3600 X114.335 Y95.614
G0 X115.614 Y95.614
G0 X115.67 Y114.33
G0 X115.6 Y114.4
;TYPE:WALL-INNER
G1 F2100 E5.1151
G1 F1800 X115.6 Y95.6 E5.42774
G1 X134.4 Y95.6 E5.74039
G1 X134.4 Y114.4 E6.05303
G1 X115.6 Y114.4 E6.36568
G0 F3600 X115.2 Y114.8
;TYPE:WALL-OUTER
G1 F1800 X115.2 Y95.2 E6.69163
G1 X134.8 Y95.2 E7.01757
G1 X134.8 Y114.8 E7.34352
G1 X115.2 Y114.8 E7.66947
G0 F3600 X115.2 Y114.6
G0 X115.99 Y114.01
;TYPE:SKIN
G1 F1800 X115.99 Y95.99 E7.96915
G1 X134.01 Y95.99 E8.26882
G1 X134.01 Y114.01 E8.56849
G1 X115.99 Y114.01 E8.86817
G0 F3600 X116.658 Y113.83
G1 F1800 X116.169 Y113.34 E8.87968
G0 F3600 X116.169 Y112.775
G1 F1800 X117.224 Y113.83 E8.90449
G0 F3600 X117.789 Y113.83
G1 F1800 X116.169 Y112.209 E8.9426
G0 F3600 X116.169 Y111.643
G1 F1800 X118.355 Y113.83 E8.99403
G0 F3600 X118.921 Y113.83
G1 F1800 X116.169 Y111.077 E9.05876
G0 F3600 X116.169 Y110.512
G1 F1800 X119.486 Y113.83 E9.13678
G0 F3600 X120.052 Y113.83
G1 F1800 X116.169 Y109.946 E9.22812
G0 F3600 X116.169 Y109.38
G1 F1800 X120.618 Y113.83 E9.33276
G0 F3600 X121.183 Y113.83
G1 F1800 X116.169 Y108.815 E9.4507
G0 F3600 X116.169 Y108.249
G1 F1800 X121.749 Y113.83 E9.58194
G0 F3600 X122.315 Y113.83
G1 F1800 X116.169 Y107.683 E9.7265
G0 F3600 X116.169 Y107.118
G1 F1800 X122.881 Y113.83 E9.88435
G0 F3600 X123.446 Y113.83
G1 F1800 X116.169 Y106.552 E10.05551
G0 F3600 X116.169 Y105.986
G1 F1800 X124.012 Y113.83 E10.23998
G0 F3600 X124.578 Y113.83
G1 F1800 X116.169 Y105.421 E10.43774
G0 F3600 X116.169 Y104.855
G1 F1800 X125.143 Y113.83 E10.64881
G0 F3600 X125.709 Y113.83
G1 F1800 X116.169 Y104.289 E10.87319
G0 F3600 X116.169 Y103.724
G1 F1800 X126.275 Y113.83 E11.11087
G0 F3600 X126.84 Y113.83
G1 F1800 X116.169 Y103.158 E11.36184
G0 F3600 X116.169 Y102.592
G1 F1800 X127.406 Y113.83 E11.62613
G0 F3600 X127.972 Y113.83
G1 F1800 X116.169 Y102.027 E11.90372
G0 F3600 X116.169 Y101.461
G1 F1800 X128.537 Y113.83 E12.19461
G0 F3600 X129.103 Y113.83
G1 F1800 X116.169 Y100.895 E12.49881
G0 F3600 X116.169 Y100.329
G1 F1800 X129.669 Y113.83 E12.81632
G0 F3600 X130.234 Y113.83
G1 F1800 X116.169 Y99.764 E13.14712
G0 F3600 X116.169 Y99.198
G1 F1800 X130.8 Y113.83 E13.49123
G0 F3600 X131.366 Y113.83
G1 F1800 X116.169 Y98.632 E13.84865
G0 F3600 X116.169 Y98.067
G1 F1800 X131.931 Y113.83 E14.21936
G0 F3600 X132.497 Y113.83
G1 F1800 X116.169 Y97.501 E14.60338
G0 F3600 X116.169 Y96.935
G1 F1800 X133.063 Y113.83 E15.00071
G0 F3600 X133.629 Y113.83
G1 F1800 X116.169 Y96.37 E15.41135
G0 F3600 X116.534 Y96.17
G1 F1800 X133.829 Y113.465 E15.8181
G0 F3600 X133.829 Y112.899
G1 F1800 X117.1 Y96.17 E16.21154
G0 F3600 X117.666 Y96.17
G1 F1800 X133.829 Y112.333 E16.59167
G0 F3600 X133.829 Y111.768
G1 F1800 X118.231 Y96.17 E16.95851
G0 F3600 X118.797 Y96.17
G1 F1800 X133.829 Y111.202 E17.31204
G0 F3600 X133.829 Y110.636
G1 F1800 X119.363 Y96.17 E17.65226
G0 F3600 X119.928 Y96.17
G1 F1800 X133.829 Y110.071 E17.97919
G0 F3600 X133.829 Y109.505
G1 F1800 X120.494 Y96.17 E18.29281
G0 F3600 X121.06 Y96.17
G1 F1800 X133.829 Y108.939 E18.59311
G0 F3600 X133.829 Y108.374
G1 F1800 X121.625 Y96.17 E18.88013
G0 F3600 X122.191 Y96.17
G1 F1800 X133.829 Y107.808 E19.15384
G0 F3600 X133.829 Y107.242
G1 F1800 X122.757 Y96.17 E19.41424
G0 F3600 X123.322 Y96.17
G1 F1800 X133.829 Y106.676 E19.66133
G0 F3600 X133.829 Y106.111
G1 F1800 X123.888 Y96.17 E19.89513
G0 F3600 X124.454 Y96.17
G1 F1800 X133.829 Y105.545 E20.11562
G0 F3600 X133.829 Y104.979
G1 F1800 X125.02 Y96.17 E20.32279
G0 F3600 X125.585 Y96.17
G1 F1800 X133.829 Y104.414 E20.51668
G0 F3600 X133.829 Y103.848
G1 F1800 X126.151 Y96.17 E20.69725
G0 F3600 X126.717 Y96.17
G1 F1800 X133.829 Y103.282 E20.86452
G0 F3600 X133.829 Y102.717
G1 F1800 X127.282 Y96.17 E21.01849
G0 F3600 X127.848 Y96.17
G1 F1800 X133.829 Y102.151 E21.15915
G0 F3600 X133.829 Y101.585
G1 F1800 X128.414 Y96.17 E21.28651
G0 F3600 X128.979 Y96.17
G1 F1800 X133.829 Y101.02 E21.40057
G0 F3600 X133.829 Y100.454
G1 F1800 X129.545 Y96.17 E21.50132
G0 F3600 X130.111 Y96.17
G1 F1800 X133.829 Y99.888 E21.58877
G0 F3600 X133.829 Y99.323
G1 F1800 X130.676 Y96.17 E21.66292
G0 F3600 X131.242 Y96.17
G1 F1800 X133.829 Y98.757 E21.72376
G0 F3600 X133.829 Y98.191
G1 F1800 X131.808 Y96.17 E21.77129
G0 F3600 X132.373 Y96.17
G1 F1800 X133.829 Y97.625 E21.80552
G0 F3600 X133.829 Y97.06
G1 F1800 X132.939 Y96.17 E21.82646
G0 F3600 X133.505 Y96.17
M104 S200
G1 F1800 X133.829 Y96.494 E21.83408
;MESH:NONMESH
G0 F600 X133.829 Y96.494 Z0.2
G0 F3600 X115.67 Y114.33
G0 X115.6 Y114.4
;TIME_ELAPSED:52.815179
;LAYER:1
M140 S60
M106 S255
;TYPE:WALL-INNER
;MESH:20mmTestCube_repaired.stl
G1 F2700 X115.6 Y95.6 E22.14672
G1 X134.4 Y95.6 E22.45937
G1 X134.4 Y114.4 E22.77201
G1 X115.6 Y114.4 E23.08466
G0 F5400 X115.2 Y114.8
;TYPE:WALL-OUTER
G1 F1800 X115.2 Y95.2 E23.41061
G1 X134.8 Y95.2 E23.73656
G1 X134.8 Y114.8 E24.06251
G1 X115.2 Y114.8 E24.38845
G0 F5400 X115.2 Y114.6
G0 X115.99 Y114.01
;TYPE:SKIN
G1 F1800 X115.99 Y95.99 E24.68813
G1 X134.01 Y95.99 E24.9878
G1 X134.01 Y114.01 E25.28748
G1 X115.99 Y114.01 E25.58715
G0 F5400 X116.527 Y96.17
G1 F1800 X116.169 Y96.527 E25.59556
G0 F5400 X116.169 Y97.093
G1 F1800 X117.093 Y96.17 E25.61728
G0 F5400 X117.659 Y96.17
G1 F1800 X116.169 Y97.659 E25.65231
G0 F5400 X116.169 Y98.224
G1 F1800 X118.224 Y96.17 E25.70063
G0 F5400 X118.79 Y96.17
G1 F1800 X116.169 Y98.79 E25.76226
G0 F5400 X116.169 Y99.356
G1 F1800 X119.356 Y96.17 E25.8372
G0 F5400 X119.921 Y96.17
G1 F1800 X116.169 Y99.921 E25.92543
G0 F5400 X116.169 Y100.487
G1 F1800 X120.487 Y96.17 E26.02697
G0 F5400 X121.053 Y96.17
G1 F1800 X116.169 Y101.053 E26.14182
G0 F5400 X116.169 Y101.619
G1 F1800 X121.618 Y96.17 E26.26997
G0 F5400 X122.184 Y96.17
G1 F1800 X116.169 Y102.184 E26.41142
G0 F5400 X116.169 Y102.75
G1 F1800 X122.75 Y96.17 E26.56619
G0 F5400 X123.315 Y96.17
G1 F1800 X116.169 Y103.316 E26.73425
G0 F5400 X116.169 Y103.881
G1 F1800 X123.881 Y96.17 E26.91561
G0 F5400 X124.447 Y96.17
G1 F1800 X116.169 Y104.447 E27.11029
G0 F5400 X116.169 Y105.013
G1 F1800 X125.012 Y96.17 E27.31826
G0 F5400 X125.578 Y96.17
G1 F1800 X116.169 Y105.578 E27.53954
G0 F5400 X116.169 Y106.144
G1 F1800 X126.144 Y96.17 E27.77412
G0 F5400 X126.709 Y96.17
G1 F1800 X116.169 Y106.71 E28.022
G0 F5400 X116.169 Y107.275
G1 F1800 X127.275 Y96.17 E28.28319
G0 F5400 X127.841 Y96.17
G1 F1800 X116.169 Y107.841 E28.55768
G0 F5400 X116.169 Y108.407
G1 F1800 X128.407 Y96.17 E28.84549
G0 F5400 X128.972 Y96.17
G1 F1800 X116.169 Y108.972 E29.14659
G0 F5400 X116.169 Y109.538
G1 F1800 X129.538 Y96.17 E29.46099
G0 F5400 X130.104 Y96.17
G1 F1800 X116.169 Y110.104 E29.78871
G0 F5400 X116.169 Y110.669
G1 F1800 X130.669 Y96.17 E30.12972
G0 F5400 X131.235 Y96.17
G1 F1800 X116.169 Y111.235 E30.48404
G0 F5400 X116.169 Y111.801
G1 F1800 X131.801 Y96.17 E30.85166
G0 F5400 X132.366 Y96.17
G1 F1800 X116.169 Y112.367 E31.23259
G0 F5400 X116.169 Y112.932
G1 F1800 X132.932 Y96.17 E31.62682
G0 F5400 X133.498 Y96.17
G1 F1800 X116.169 Y113.498 E32.03436
G0 F5400 X116.403 Y113.83
G1 F1800 X133.829 Y96.404 E32.44419
G0 F5400 X133.829 Y96.97
G1 F1800 X116.969 Y113.83 E32.84072
G0 F5400 X117.535 Y113.83
G1 F1800 X133.829 Y97.536 E33.22393
G0 F5400 X133.829 Y98.101
G1 F1800 X118.1 Y113.83 E33.59385
G0 F5400 X118.666 Y113.83
G1 F1800 X133.829 Y98.667 E33.95046
G0 F5400 X133.829 Y99.233
G1 F1800 X119.232 Y113.83 E34.29376
G0 F5400 X119.798 Y113.83
G1 F1800 X133.829 Y99.798 E34.62376
G0 F5400 X133.829 Y100.364
G1 F1800 X120.363 Y113.83 E34.94046
G0 F5400 X120.929 Y113.83
G1 F1800 X133.829 Y100.93 E35.24384
G0 F5400 X133.829 Y101.495
G1 F1800 X121.495 Y113.83 E35.53393
G0 F5400 X122.06 Y113.83
G1 F1800 X133.829 Y102.061 E35.81072
G0 F5400 X133.829 Y102.627
G1 F1800 X122.626 Y113.83 E36.0742
G0 F5400 X123.192 Y113.83
G1 F1800 X133.829 Y103.193 E36.32436
G0 F5400 X133.829 Y103.758
G1 F1800 X123.757 Y113.83 E36.56124
G0 F5400 X124.323 Y113.83
G1 F1800 X133.829 Y104.324 E36.78481
G0 F5400 X133.829 Y104.89
G1 F1800 X124.889 Y113.83 E36.99506
G0 F5400 X125.454 Y113.83
G1 F1800 X133.829 Y105.455 E37.19203
G0 F5400 X133.829 Y106.021
G1 F1800 X126.02 Y113.83 E37.37569
G0 F5400 X126.586 Y113.83
G1 F1800 X133.829 Y106.587 E37.54603
G0 F5400 X133.829 Y107.152
G1 F1800 X127.151 Y113.83 E37.70309
G0 F5400 X127.717 Y113.83
G1 F1800 X133.829 Y107.718 E37.84683
G0 F5400 X133.829 Y108.284
G1 F1800 X128.283 Y113.83 E37.97727
G0 F5400 X128.848 Y113.83
G1 F1800 X133.829 Y108.849 E38.09441
G0 F5400 X133.829 Y109.415
G1 F1800 X129.414 Y113.83 E38.19825
G0 F5400 X129.98 Y113.83
G1 F1800 X133.829 Y109.981 E38.28877
G0 F5400 X133.829 Y110.546
G1 F1800 X130.546 Y113.83 E38.36599
G0 F5400 X131.111 Y113.83
G1 F1800 X133.829 Y111.112 E38.42991
G0 F5400 X133.829 Y111.678
G1 F1800 X131.677 Y113.83 E38.48053
G0 F5400 X132.243 Y113.83
G1 F1800 X133.829 Y112.244 E38.51783
G0 F5400 X133.829 Y112.809
G1 F1800 X132.808 Y113.83 E38.54184
G0 F5400 X133.374 Y113.83
G1 F1800 X133.829 Y113.375 E38.55254
;MESH:NONMESH
G0 F600 X133.829 Y113.375 Z0.3
G0 F5400 X115.67 Y114.33
G0 X115.6 Y114.4
;TIME_ELAPSED:89.813798
;LAYER:2
;TYPE:WALL-INNER
;MESH:20mmTestCube_repaired.stl
G1 F3600 X115.6 Y95.6 E38.86518
G1 X134.4 Y95.6 E39.17783
G1 X134.4 Y114.4 E39.49048
G1 X115.6 Y114.4 E39.80312
G0 F7200 X115.2 Y114.8
;TYPE:WALL-OUTER
G1 F1800 X115.2 Y95.2 E40.12907
G1 X134.8 Y95.2 E40.45502
G1 X134.8 Y114.8 E40.78097
G1 X115.2 Y114.8 E41.10692
G0 F7200 X115.2 Y114.6
G0 X115.99 Y114.01
;TYPE:SKIN
G1 F1800 X115.99 Y95.99 E41.40659
G1 X134.01 Y95.99 E41.70627
G1 X134.01 Y114.01 E42.00594
G1 X115.99 Y114.01 E42.30561
G0 F7200 X116.658 Y113.83
G1 F1800 X116.169 Y113.34 E42.31713
G0 F7200 X116.169 Y112.775
G1 F1800 X117.224 Y113.83 E42.34194
G0 F7200 X117.789 Y113.83
