;FLAVOR:Marlin
;TIME:813
;Filament used: 1.29659m
;Layer height: 0.3
;MINX:111
;MINY:91
;MINZ:0.3
;MAXX:139
;MAXY:119
;MAXZ:19.8
;Generated with Cura_SteamEngine 4.4.1
M82 ;absolute extrusion mode
G21 ; set units to millimeters
G90 ; use absolute positioning
M82 ; absolute extrusion mode
M104 S200 ; set extruder temp
M140 S60 ; set bed temp
M190 S60 ; wait for bed temp
M109 S200 ; wait for extruder temp
G28 W ; home all without mesh bed level
G80 ; mesh bed leveling
G92 E0.0 ; reset extruder distance position
G1 Y-3.0 F1000.0 ; go outside print area
G1 X60.0 E9.0 F1000.0 ; intro line
G1 X100.0 E21.5 F1000.0 ; intro line
G92 E0.0 ; reset extruder distance position
G92 E0
G92 E0
G1 F2100 E-0.8
;LAYER_COUNT:66
;LAYER:0
M107
G0 F3600 X112.004 Y92.369 Z0.3
;TYPE:SKIRT
G1 F2100 E0
G1 F1800 X112.406 Y91.972 E0.02819
G1 X112.86 Y91.635 E0.0564
G1 X113.357 Y91.366 E0.08459
G1 X113.887 Y91.169 E0.1128
G1 X114.44 Y91.05 E0.14102
G1 X114.897 Y91.011 E0.1639
G1 X115.218 Y91.002 E0.17992
G1 X115.33 Y91 E0.18551
G1 X134.35 Y91 E1.13442
G1 X135.048 Y91.01 E1.16925
G1 X135.612 Y91.058 E1.19749
G1 X136.162 Y91.185 E1.22565
G1 X136.69 Y91.389 E1.25389
G1 X137.184 Y91.664 E1.2821
G1 X137.633 Y92.007 E1.31029
G1 X138.03 Y92.409 E1.33848
G1 X138.367 Y92.864 E1.36672
G1 X138.635 Y93.361 E1.3949
G1 X138.831 Y93.891 E1.42309
G1 X138.951 Y94.444 E1.45132
G1 X138.989 Y94.898 E1.47405
G1 X138.998 Y95.218 E1.49002
G1 X139 Y95.33 E1.49561
G1 X139 Y114.314 E2.44272
G1 X138.991 Y115.041 E2.479
G1 X138.944 Y115.604 E2.50718
G1 X138.818 Y116.155 E2.53538
G1 X138.616 Y116.683 E2.56359
G1 X138.341 Y117.177 E2.59179
G1 X137.999 Y117.627 E2.61999
G1 X137.597 Y118.025 E2.64821
G1 X137.144 Y118.362 E2.67638
G1 X136.647 Y118.632 E2.7046
G1 X136.117 Y118.829 E2.73281
G1 X135.565 Y118.95 E2.761
G1 X135.103 Y118.989 E2.78413
G1 X134.782 Y118.998 E2.80015
G1 X134.67 Y119 E2.80574
G1 X115.655 Y119 E3.75441
G1 X114.957 Y118.991 E3.78923
G1 X114.394 Y118.943 E3.81742
G1 X113.843 Y118.817 E3.84562
G1 X113.315 Y118.615 E3.87382
G1 X112.821 Y118.34 E3.90203
G1 X112.371 Y117.998 E3.93023
G1 X111.973 Y117.596 E3.95845
G1 X111.637 Y117.142 E3.98663
G1 X111.367 Y116.645 E4.01485
G1 X111.17 Y116.115 E4.04306
G1 X111.05 Y115.563 E4.07124
G1 X111.01 Y115.099 E4.09448
G1 X111.001 Y114.766 E4.1111
G1 X111 Y114.658 E4.11648
G1 X111 Y95.62 E5.06629
G1 X111.009 Y94.955 E5.09947
G1 X111.057 Y94.392 E5.12766
G1 X111.183 Y93.841 E5.15586
G1 X111.386 Y93.313 E5.18409
G1 X111.662 Y92.819 E5.21232
G1 X112.004 Y92.369 E5.24052
G0 F3600 X112.397 Y92.531
G1 F1800 X112.794 Y92.171 E5.26725
G1 X113.241 Y91.873 E5.29405
G1 X113.726 Y91.645 E5.32079
G1 X114.24 Y91.492 E5.34755
G1 X114.908 Y91.41 E5.38112
G1 X115.229 Y91.401 E5.39715
G1 X115.33 Y91.4 E5.40218
G1 X134.345 Y91.4 E6.35085
G1 X135.043 Y91.41 E6.38567
G1 X135.577 Y91.458 E6.41242
G1 X136.098 Y91.584 E6.43916
G1 X136.595 Y91.787 E6.46595
G1 X137.056 Y92.061 E6.4927
G1 X137.471 Y92.4 E6.51944
G1 X137.831 Y92.798 E6.54621
G1 X138.128 Y93.244 E6.57294
G1 X138.356 Y93.73 E6.59973
G1 X138.508 Y94.244 E6.62647
G1 X138.59 Y94.909 E6.6599
G1 X138.599 Y95.229 E6.67587
G1 X138.6 Y95.33 E6.68091
G1 X138.6 Y114.309 E7.62777
G1 X138.591 Y115.036 E7.66405
G1 X138.544 Y115.57 E7.69079
G1 X138.419 Y116.091 E7.71752
G1 X138.217 Y116.588 E7.74429
G1 X137.944 Y117.05 E7.77106
G1 X137.606 Y117.466 E7.7978
G1 X137.209 Y117.827 E7.82457
G1 X136.763 Y118.125 E7.85133
G1 X136.278 Y118.353 E7.87807
G1 X135.764 Y118.507 E7.90484
G1 X135.092 Y118.59 E7.93862
G1 X134.771 Y118.599 E7.95464
G1 X134.67 Y118.6 E7.95968
G1 X115.661 Y118.6 E8.90804
G1 X114.963 Y118.591 E8.94287
G1 X114.428 Y118.544 E8.96966
G1 X113.907 Y118.418 E8.99641
G1 X113.41 Y118.216 E9.02317
G1 X112.949 Y117.943 E9.0499
G1 X112.533 Y117.604 E9.07667
G1 X112.172 Y117.208 E9.10341
G1 X111.874 Y116.762 E9.13017
G1 X111.646 Y116.276 E9.15695
G1 X111.493 Y115.762 E9.18371
G1 X111.41 Y115.088 E9.21759
G1 X111.401 Y114.755 E9.2342
G1 X111.4 Y114.658 E9.23904
G1 X111.4 Y95.625 E10.1886
G1 X111.409 Y94.96 E10.22178
G1 X111.457 Y94.426 E10.24853
G1 X111.583 Y93.905 E10.27528
G1 X111.785 Y93.408 E10.30204
G1 X112.058 Y92.947 E10.32877
G1 X112.397 Y92.531 E10.35554
G0 F3600 X112.454 Y93.082
G1 F1800 X112.789 Y92.704 E10.38074
G1 X113.18 Y92.383 E10.40598
G1 X113.617 Y92.128 E10.43122
G1 X114.088 Y91.944 E10.45645
G1 X114.582 Y91.838 E10.48166
G1 X114.919 Y91.81 E10.49853
G1 X115.24 Y91.801 E10.51455
G1 X115.33 Y91.8 E10.51904
G1 X134.339 Y91.8 E11.4674
G1 X135.037 Y91.81 E11.50223
G1 X135.54 Y91.857 E11.52743
G1 X136.03 Y91.983 E11.55268
G1 X136.494 Y92.185 E11.57792
G1 X136.92 Y92.457 E11.60314
G1 X137.298 Y92.792 E11.62834
G1 X137.618 Y93.183 E11.65354
G1 X137.873 Y93.62 E11.67879
G1 X138.056 Y94.091 E11.704
G1 X138.163 Y94.585 E11.72921
G1 X138.19 Y94.92 E11.74598
G1 X138.199 Y95.24 E11.76195
G1 X138.2 Y95.33 E11.76644
G1 X138.2 Y114.304 E12.71306
G1 X138.191 Y115.031 E12.74933
G1 X138.145 Y115.534 E12.77453
G1 X138.02 Y116.024 E12.79976
G1 X137.819 Y116.488 E12.82499
G1 X137.548 Y116.915 E12.85022
G1 X137.213 Y117.294 E12.87546
G1 X136.823 Y117.615 E12.90066
G1 X136.387 Y117.871 E12.92588
G1 X135.916 Y118.054 E12.95109
G1 X135.422 Y118.162 E12.97632
G1 X135.081 Y118.19 E12.99339
G1 X134.76 Y118.199 E13.00941
G1 X134.67 Y118.2 E13.0139
G1 X115.666 Y118.2 E13.96201
G1 X114.968 Y118.191 E13.99684
G1 X114.464 Y118.144 E14.02209
G1 X113.974 Y118.019 E14.04732
G1 X113.51 Y117.818 E14.07255
G1 X113.084 Y117.547 E14.09774
G1 X112.705 Y117.212 E14.12298
G1 X112.384 Y116.821 E14.14821
G1 X112.129 Y116.385 E14.17341
G1 X111.945 Y115.914 E14.19864
G1 X111.838 Y115.42 E14.22386
G1 X111.81 Y115.077 E14.24103
G1 X111.801 Y114.744 E14.25765
G1 X111.8 Y114.658 E14.26194
G1 X111.8 Y95.631 E15.2112
G1 X111.809 Y94.966 E15.24438
G1 X111.856 Y94.462 E15.26963
G1 X111.982 Y93.973 E15.29483
G1 X112.183 Y93.509 E15.32005
G1 X112.454 Y93.082 E15.34529
G1 F2100 E14.54529
;MESH:20mmTestCube_repaired.stl
G0 F3600 X114.335 Y95.614
G0 X115.614 Y95.614
G0 X115.67 Y114.33
G0 X115.6 Y114.4
;TYPE:WALL-INNER
G1 F2100 E15.34529
G1 F1800 X115.6 Y95.6 E16.28322
G1 X134.4 Y95.6 E17.22116
G1 X134.4 Y114.4 E18.15909
G1 X115.6 Y114.4 E19.09703
G0 F3600 X115.2 Y114.8
;TYPE:WALL-OUTER
G1 F1800 X115.2 Y95.2 E20.07488
G1 X134.8 Y95.2 E21.05272
G1 X134.8 Y114.8 E22.03057
G1 X115.2 Y114.8 E23.00842
G0 F3600 X115.2 Y114.6
G0 X115.99 Y114.01
;TYPE:SKIN
G1 F1800 X115.99 Y95.99 E23.90744
G1 X134.01 Y95.99 E24.80646
G1 X134.01 Y114.01 E25.70548
G1 X115.99 Y114.01 E26.60451
G0 F3600 X116.658 Y113.83
G1 F1800 X116.169 Y113.34 E26.63904
G0 F3600 X116.169 Y112.775
G1 F1800 X117.224 Y113.83 E26.71348
G0 F3600 X117.789 Y113.83
G1 F1800 X116.169 Y112.209 E26.82781
G0 F3600 X116.169 Y111.643
G1 F1800 X118.355 Y113.83 E26.98208
G0 F3600 X118.921 Y113.83
G1 F1800 X116.169 Y111.077 E27.17629
G0 F3600 X116.169 Y110.512
G1 F1800 X119.486 Y113.83 E27.41035
G0 F3600 X120.052 Y113.83
G1 F1800 X116.169 Y109.946 E27.68436
G0 F3600 X116.169 Y109.38
G1 F1800 X120.618 Y113.83 E27.99829
G0 F3600 X121.183 Y113.83
G1 F1800 X116.169 Y108.815 E28.35209
G0 F3600 X116.169 Y108.249
G1 F1800 X121.749 Y113.83 E28.74583
G0 F3600 X122.315 Y113.83
G1 F1800 X116.169 Y107.683 E29.1795
G0 F3600 X116.169 Y107.118
G1 F1800 X122.881 Y113.83 E29.65306
G0 F3600 X123.446 Y113.83
G1 F1800 X116.169 Y106.552 E30.16653
G0 F3600 X116.169 Y105.986
G1 F1800 X124.012 Y113.83 E30.71993
G0 F3600 X124.578 Y113.83
G1 F1800 X116.169 Y105.421 E31.31323
G0 F3600 X116.169 Y104.855
G1 F1800 X125.143 Y113.83 E31.94643
G0 F3600 X125.709 Y113.83
G1 F1800 X116.169 Y104.289 E32.61957
G0 F3600 X116.169 Y103.724
G1 F1800 X126.275 Y113.83 E33.3326
G0 F3600 X126.84 Y113.83
G1 F1800 X116.169 Y103.158 E34.08553
G0 F3600 X116.169 Y102.592
G1 F1800 X127.406 Y113.83 E34.8784
G0 F3600 X127.972 Y113.83
G1 F1800 X116.169 Y102.027 E35.71116
G0 F3600 X116.169 Y101.461
G1 F1800 X128.537 Y113.83 E36.58383
G0 F3600 X129.103 Y113.83
G1 F1800 X116.169 Y100.895 E37.49643
G0 F3600 X116.169 Y100.329
G1 F1800 X129.669 Y113.83 E38.44896
G0 F3600 X130.234 Y113.83
G1 F1800 X116.169 Y99.764 E39.44136
G0 F3600 X116.169 Y99.198
G1 F1800 X130.8 Y113.83 E40.47369
G0 F3600 X131.366 Y113.83
G1 F1800 X116.169 Y98.632 E41.54595
G0 F3600 X116.169 Y98.067
G1 F1800 X131.931 Y113.83 E42.65808
G0 F3600 X132.497 Y113.83
G1 F1800 X116.169 Y97.501 E43.81015
G0 F3600 X116.169 Y96.935
G1 F1800 X133.063 Y113.83 E45.00214
G0 F3600 X133.629 Y113.83
G1 F1800 X116.169 Y96.37 E46.23404
G0 F3600 X116.534 Y96.17
G1 F1800 X133.829 Y113.465 E47.4543
G0 F3600 X133.829 Y112.899
G1 F1800 X117.1 Y96.17 E48.63462
G0 F3600 X117.666 Y96.17
G1 F1800 X133.829 Y112.333 E49.77501
G0 F3600 X133.829 Y111.768
G1 F1800 X118.231 Y96.17 E50.87553
G0 F3600 X118.797 Y96.17
G1 F1800 X133.829 Y111.202 E51.93612
G0 F3600 X133.829 Y110.636
G1 F1800 X119.363 Y96.17 E52.95677
G0 F3600 X119.928 Y96.17
G1 F1800 X133.829 Y110.071 E53.93756
G0 F3600 X133.829 Y109.505
G1 F1800 X120.494 Y96.17 E54.87842
G0 F3600 X121.06 Y96.17
G1 F1800 X133.829 Y108.939 E55.77934
G0 F3600 X133.829 Y108.374
G1 F1800 X121.625 Y96.17 E56.6404
G0 F3600 X122.191 Y96.17
G1 F1800 X133.829 Y107.808 E57.46152
G0 F3600 X133.829 Y107.242
G1 F1800 X122.757 Y96.17 E58.24271
G0 F3600 X123.322 Y96.17
G1 F1800 X133.829 Y106.676 E58.984
G0 F3600 X133.829 Y106.111
G1 F1800 X123.888 Y96.17 E59.68539
G0 F3600 X124.454 Y96.17
G1 F1800 X133.829 Y105.545 E60.34685
G0 F3600 X133.829 Y104.979
G1 F1800 X125.02 Y96.17 E60.96837
G0 F3600 X125.585 Y96.17
G1 F1800 X133.829 Y104.414 E61.55003
G0 F3600 X133.829 Y103.848
G1 F1800 X126.151 Y96.17 E62.09176
G0 F3600 X126.717 Y96.17
G1 F1800 X133.829 Y103.282 E62.59355
G0 F3600 X133.829 Y102.717
G1 F1800 X127.282 Y96.17 E63.05547
G0 F3600 X127.848 Y96.17
G1 F1800 X133.829 Y102.151 E63.47746
G0 F3600 X133.829 Y101.585
G1 F1800 X128.414 Y96.17 E63.85952
G0 F3600 X128.979 Y96.17
G1 F1800 X133.829 Y101.02 E64.20172
G0 F3600 X133.829 Y100.454
G1 F1800 X129.545 Y96.17 E64.50397
G0 F3600 X130.111 Y96.17
G1 F1800 X133.829 Y99.888 E64.7663
G0 F3600 X133.829 Y99.323
G1 F1800 X130.676 Y96.17 E64.98876
G0 F3600 X131.242 Y96.17
G1 F1800 X133.829 Y98.757 E65.17129
G0 F3600 X133.829 Y98.191
G1 F1800 X131.808 Y96.17 E65.31388
G0 F3600 X132.373 Y96.17
G1 F1800 X133.829 Y97.625 E65.41657
G0 F3600 X133.829 Y97.06
G1 F1800 X132.939 Y96.17 E65.47937
G0 F3600 X133.505 Y96.17
M104 S200
G1 F1800 X133.829 Y96.494 E65.50223
;MESH:NONMESH
G0 F600 X133.829 Y96.494 Z0.6
G0 F3600 X115.67 Y114.33
G0 X115.6 Y114.4
;TIME_ELAPSED:52.836158
;LAYER:1
M140 S60
M106 S255
;TYPE:WALL-INNER
;MESH:20mmTestCube_repaired.stl
G1 F2700 X115.6 Y95.6 E66.44016
G1 X134.4 Y95.6 E67.3781
G1 X134.4 Y114.4 E68.31604
G1 X115.6 Y114.4 E69.25397
G0 F5400 X115.2 Y114.8
;TYPE:WALL-OUTER
G1 F1800 X115.2 Y95.2 E70.23182
G1 X134.8 Y95.2 E71.20967
G1 X134.8 Y114.8 E72.18752
G1 X115.2 Y114.8 E73.16536
G0 F5400 X115.2 Y114.6
G0 X115.99 Y114.01
;TYPE:SKIN
G1 F1800 X115.99 Y95.99 E74.06438
G1 X134.01 Y95.99 E74.96341
G1 X134.01 Y114.01 E75.86243
G1 X115.99 Y114.01 E76.76145
G0 F5400 X116.527 Y96.17
G1 F1800 X116.169 Y96.527 E76.78667
G0 F5400 X116.169 Y97.093
G1 F1800 X117.093 Y96.17 E76.85183
G0 F5400 X117.659 Y96.17
G1 F1800 X116.169 Y97.659 E76.95692
G0 F5400 X116.169 Y98.224
G1 F1800 X118.224 Y96.17 E77.10188
G0 F5400 X118.79 Y96.17
G1 F1800 X116.169 Y98.79 E77.28677
G0 F5400 X116.169 Y99.356
G1 F1800 X119.356 Y96.17 E77.51159
G0 F5400 X119.921 Y96.17
G1 F1800 X116.169 Y99.921 E77.77628
G0 F5400 X116.169 Y100.487
G1 F1800 X120.487 Y96.17 E78.08091
G0 F5400 X121.053 Y96.17
G1 F1800 X116.169 Y101.053 E78.42546
G0 F5400 X116.169 Y101.619
G1 F1800 X121.618 Y96.17 E78.80992
G0 F5400 X122.184 Y96.17
G1 F1800 X116.169 Y102.184 E79.23427
G0 F5400 X116.169 Y102.75
G1 F1800 X122.75 Y96.17 E79.69856
G0 F5400 X123.315 Y96.17
G1 F1800 X116.169 Y103.316 E80.20275
G0 F5400 X116.169 Y103.881
G1 F1800 X123.881 Y96.17 E80.74684
G0 F5400 X124.447 Y96.17
G1 F1800 X116.169 Y104.447 E81.33086
G0 F5400 X116.169 Y105.013
G1 F1800 X125.012 Y96.17 E81.95479
G0 F5400 X125.578 Y96.17
G1 F1800 X116.169 Y105.578 E82.61861
G0 F5400 X116.169 Y106.144
G1 F1800 X126.144 Y96.17 E83.32236
G0 F5400 X126.709 Y96.17
G1 F1800 X116.169 Y106.71 E84.06601
G0 F5400 X116.169 Y107.275
G1 F1800 X127.275 Y96.17 E84.84957
G0 F5400 X127.841 Y96.17
G1 F1800 X116.169 Y107.841 E85.67305
G0 F5400 X116.169 Y108.407
G1 F1800 X128.407 Y96.17 E86.53648
G0 F5400 X128.972 Y96.17
G1 F1800 X116.169 Y108.972 E87.43976
G0 F5400 X116.169 Y109.538
G1 F1800 X129.538 Y96.17 E88.38298
G0 F5400 X130.104 Y96.17
G1 F1800 X116.169 Y110.104 E89.36614
G0 F5400 X116.169 Y110.669
G1 F1800 X130.669 Y96.17 E90.38915
G0 F5400 X131.235 Y96.17
G1 F1800 X116.169 Y111.235 E91.45211
G0 F5400 X116.169 Y111.801
G1 F1800 X131.801 Y96.17 E92.55499
G0 F5400 X132.366 Y96.17
G1 F1800 X116.169 Y112.367 E93.69778
G0 F5400 X116.169 Y112.932
G1 F1800 X132.932 Y96.17 E94.88046
G0 F5400 X133.498 Y96.17
G1 F1800 X116.169 Y113.498 E96.10308
G0 F5400 X116.403 Y113.83
G1 F1800 X133.829 Y96.404 E97.33258
G0 F5400 X133.829 Y96.97
G1 F1800 X116.969 Y113.83 E98.52215
G0 F5400 X117.535 Y113.83
G1 F1800 X133.829 Y97.536 E99.67178
G0 F5400 X133.829 Y98.101
G1 F1800 X118.1 Y113.83 E100.78154
G0 F5400 X118.666 Y113.83
G1 F1800 X133.829 Y98.667 E101.85137
G0 F5400 X133.829 Y99.233
G1 F1800 X119.232 Y113.83 E102.88127
G0 F5400 X119.798 Y113.83
G1 F1800 X133.829 Y99.798 E103.87127
G0 F5400 X133.829 Y100.364
G1 F1800 X120.363 Y113.83 E104.82137
G0 F5400 X120.929 Y113.83
G1 F1800 X133.829 Y100.93 E105.73153
G0 F5400 X133.829 Y101.495
G1 F1800 X121.495 Y113.83 E106.6018
G0 F5400 X122.06 Y113.83
G1 F1800 X133.829 Y102.061 E107.43216
G0 F5400 X133.829 Y102.627
G1 F1800 X122.626 Y113.83 E108.2226
G0 F5400 X123.192 Y113.83
G1 F1800 X133.829 Y103.193 E108.97309
G0 F5400 X133.829 Y103.758
G1 F1800 X123.757 Y113.83 E109.68373
G0 F5400 X124.323 Y113.83
G1 F1800 X133.829 Y104.324 E110.35443
G0 F5400 X133.829 Y104.89
G1 F1800 X124.889 Y113.83 E110.98519
G0 F5400 X125.454 Y113.83
G1 F1800 X133.829 Y105.455 E111.57609
G0 F5400 X133.829 Y106.021
G1 F1800 X126.02 Y113.83 E112.12706
G0 F5400 X126.586 Y113.83
G1 F1800 X133.829 Y106.587 E112.63809
G0 F5400 X133.829 Y107.152
G1 F1800 X127.151 Y113.83 E113.10926
G0 F5400 X127.717 Y113.83
G1 F1800 X133.829 Y107.718 E113.5405
G0 F5400 X133.829 Y108.284
G1 F1800 X128.283 Y113.83 E113.9318
G0 F5400 X128.848 Y113.83
G1 F1800 X133.829 Y108.849 E114.28323
G0 F5400 X133.829 Y109.415
G1 F1800 X129.414 Y113.83 E114.59474
G0 F5400 X129.98 Y113.83
G1 F1800 X133.829 Y109.981 E114.8663
G0 F5400 X133.829 Y110.546
G1 F1800 X130.546 Y113.83 E115.09797
G0 F5400 X131.111 Y113.83
G1 F1800 X133.829 Y111.112 E115.28974
G0 F5400 X133.829 Y111.678
G1 F1800 X131.677 Y113.83 E115.44158
G0 F5400 X132.243 Y113.83
G1 F1800 X133.829 Y112.244 E115.55348
G0 F5400 X133.829 Y112.809
G1 F1800 X132.808 Y113.83 E115.62552
G0 F5400 X133.374 Y113.83
G1 F1800 X133.829 Y113.375 E115.65762
;MESH:NONMESH
G0 F600 X133.829 Y113.375 Z0.9
G0 F5400 X115.67 Y114.33
G0 X115.6 Y114.4
;TIME_ELAPSED:89.859850
;LAYER:2
;TYPE:WALL-INNER
;MESH:20mmTestCube_repaired.stl
G1 F3600 X115.6 Y95.6 E116.59555
G1 X134.4 Y95.6 E117.53349
G1 X134.4 Y114.4 E118.47143
G1 X115.6 Y114.4 E119.40936
G0 F7200 X115.2 Y114.8
;TYPE:WALL-OUTER
G1 F1800 X115.2 Y95.2 E120.38721
G1 X134.8 Y95.2 E121.36506
G1 X134.8 Y114.8 E122.34291
G1 X115.2 Y114.8 E123.32075
G0 F7200 X115.2 Y114.6
G0 X115.99 Y114.01
;TYPE:SKIN
G1 F1800 X115.99 Y95.99 E124.21978
G1 X134.01 Y95.99 E125.1188
G1 X134.01 Y114.01 E126.01782
G1 X115.99 Y114.01 E126.91684
G0 F7200 X116.658 Y113.83
