;FLAVOR:Marlin
;TIME:1193
;Filament used: 1.27982m
;Layer height: 0.2
;MINX:111
;MINY:91
;MINZ:0.2
;MAXX:139
;MAXY:119
;MAXZ:20
;Generated with Cura_SteamEngine 4.4.1
M82 ;absolute extrusion mode
G21 ; set units to millimeters
G90 ; use absolute positioning
M82 ; absolute extrusion mode
M104 S200 ; set extruder temp
M140 S60 ; set bed temp
M190 S60 ; wait for bed temp
M109 S200 ; wait for extruder temp
G28 W ; home all without mesh bed level
G80 ; mesh bed leveling
G92 E0.0 ; reset extruder distance position
G1 Y-3.0 F1000.0 ; go outside print area
G1 X60.0 E9.0 F1000.0 ; intro line
G1 X100.0 E21.5 F1000.0 ; intro line
G92 E0.0 ; reset extruder distance position
G92 E0
G92 E0
G1 F2100 E-0.8
;LAYER_COUNT:100
;LAYER:0
M107
G0 F3600 X112.004 Y92.369 Z0.2
;TYPE:SKIRT
G1 F2100 E0
G1 F1800 X112.406 Y91.972 E0.01879
G1 X112.86 Y91.635 E0.0376
G1 X113.357 Y91.366 E0.05639
G1 X113.887 Y91.169 E0.0752
G1 X114.44 Y91.05 E0.09401
G1 X114.897 Y91.011 E0.10927
G1 X115.218 Y91.002 E0.11995
G1 X115.33 Y91 E0.12368
G1 X134.35 Y91 E0.75628
G1 X135.048 Y91.01 E0.7795
G1 X135.612 Y91.058 E0.79833
G1 X136.162 Y91.185 E0.8171
G1 X136.69 Y91.389 E0.83593
G1 X137.184 Y91.664 E0.85473
G1 X137.633 Y92.007 E0.87353
G1 X138.03 Y92.409 E0.89232
G1 X138.367 Y92.864 E0.91115
G1 X138.635 Y93.361 E0.92993
G1 X138.831 Y93.891 E0.94872
G1 X138.951 Y94.444 E0.96755
G1 X138.989 Y94.898 E0.9827
G1 X138.998 Y95.218 E0.99335
G1 X139 Y95.33 E0.99707
G1 X139 Y114.314 E1.62848
G1 X138.991 Y115.041 E1.65266
G1 X138.944 Y115.604 E1.67145
G1 X138.818 Y116.155 E1.69025
G1 X138.616 Y116.683 E1.70906
G1 X138.341 Y117.177 E1.72786
G1 X137.999 Y117.627 E1.74666
G1 X137.597 Y118.025 E1.76548
G1 X137.144 Y118.362 E1.78425
G1 X136.647 Y118.632 E1.80307
G1 X136.117 Y118.829 E1.82187
G1 X135.565 Y118.95 E1.84067
G1 X135.103 Y118.989 E1.85609
G1 X134.782 Y118.998 E1.86677
G1 X134.67 Y119 E1.8705
G1 X115.655 Y119 E2.50294
G1 X114.957 Y118.991 E2.52615
G1 X114.394 Y118.943 E2.54495
G1 X113.843 Y118.817 E2.56375
G1 X113.315 Y118.615 E2.58255
G1 X112.821 Y118.34 E2.60135
G1 X112.371 Y117.998 E2.62015
G1 X111.973 Y117.596 E2.63897
G1 X111.637 Y117.142 E2.65775
G1 X111.367 Y116.645 E2.67657
G1 X111.17 Y116.115 E2.69537
G1 X111.05 Y115.563 E2.71416
G1 X111.01 Y115.099 E2.72965
G1 X111.001 Y114.766 E2.74073
G1 X111 Y114.658 E2.74432
G1 X111 Y95.62 E3.37753
G1 X111.009 Y94.955 E3.39965
G1 X111.057 Y94.392 E3.41844
G1 X111.183 Y93.841 E3.43724
G1 X111.386 Y93.313 E3.45606
G1 X111.662 Y92.819 E3.47488
G1 X112.004 Y92.369 E3.49368
G0 F3600 X112.397 Y92.531
G1 F1800 X112.794 Y92.171 E3.5115
G1 X113.241 Y91.873 E3.52937
G1 X113.726 Y91.645 E3.54719
G1 X114.24 Y91.492 E3.56503
G1 X114.908 Y91.41 E3.58742
G1 X115.229 Y91.401 E3.5981
G1 X115.33 Y91.4 E3.60146
G1 X134.345 Y91.4 E4.2339
G1 X135.043 Y91.41 E4.25712
G1 X135.577 Y91.458 E4.27495
G1 X136.098 Y91.584 E4.29278
G1 X136.595 Y91.787 E4.31063
G1 X137.056 Y92.061 E4.32847
G1 X137.471 Y92.4 E4.34629
G1 X137.831 Y92.798 E4.36414
G1 X138.128 Y93.244 E4.38196
G1 X138.356 Y93.73 E4.39982
G1 X138.508 Y94.244 E4.41765
G1 X138.59 Y94.909 E4.43993
G1 X138.599 Y95.229 E4.45058
G1 X138.6 Y95.33 E4.45394
G1 X138.6 Y114.309 E5.08518
G1 X138.591 Y115.036 E5.10936
G1 X138.544 Y115.57 E5.12719
G1 X138.419 Y116.091 E5.14501
G1 X138.217 Y116.588 E5.16286
G1 X137.944 Y117.05 E5.18071
G1 X137.606 Y117.466 E5.19853
G1 X137.209 Y117.827 E5.21638
G1 X136.763 Y118.125 E5.23422
G1 X136.278 Y118.353 E5.25205
G1 X135.764 Y118.507 E5.26989
G1 X135.092 Y118.59 E5.29241
G1 X134.771 Y118.599 E5.30309
G1 X134.67 Y118.6 E5.30645
G1 X115.661 Y118.6 E5.9387
G1 X114.963 Y118.591 E5.96191
G1 X114.428 Y118.544 E5.97978
G1 X113.907 Y118.418 E5.9976
G1 X113.41 Y118.216 E6.01545
G1 X112.949 Y117.943 E6.03327
G1 X112.533 Y117.604 E6.05112
G1 X112.172 Y117.208 E6.06894
G1 X111.874 Y116.762 E6.08678
G1 X111.646 Y116.276 E6.10463
G1 X111.493 Y115.762 E6.12247
G1 X111.41 Y115.088 E6.14506
G1 X111.401 Y114.755 E6.15614
G1 X111.4 Y114.658 E6.15936
G1 X111.4 Y95.625 E6.7924
G1 X111.409 Y94.96 E6.81452
G1 X111.457 Y94.426 E6.83236
G1 X111.583 Y93.905 E6.85018
G1 X111.785 Y93.408 E6.86803
G1 X112.058 Y92.947 E6.88585
G1 X112.397 Y92.531 E6.9037
G0 F3600 X112.454 Y93.082
G1 F1800 X112.789 Y92.704 E6.92049
G1 X113.18 Y92.383 E6.93732
G1 X113.617 Y92.128 E6.95415
G1 X114.088 Y91.944 E6.97097
G1 X114.582 Y91.838 E6.98777
G1 X114.919 Y91.81 E6.99902
G1 X115.24 Y91.801 E7.0097
G1 X115.33 Y91.8 E7.01269
G1 X134.339 Y91.8 E7.64494
G1 X135.037 Y91.81 E7.66815
G1 X135.54 Y91.857 E7.68496
G1 X136.03 Y91.983 E7.70178
G1 X136.494 Y92.185 E7.71862
G1 X136.92 Y92.457 E7.73543
G1 X137.298 Y92.792 E7.75223
G1 X137.618 Y93.183 E7.76903
G1 X137.873 Y93.62 E7.78586
G1 X138.056 Y94.091 E7.80266
G1 X138.163 Y94.585 E7.81948
G1 X138.19 Y94.92 E7.83065
G1 X138.199 Y95.24 E7.8413
G1 X138.2 Y95.33 E7.8443
G1 X138.2 Y114.304 E8.47537
G1 X138.191 Y115.031 E8.49956
G1 X138.145 Y115.534 E8.51635
G1 X138.02 Y116.024 E8.53317
G1 X137.819 Y116.488 E8.54999
G1 X137.548 Y116.915 E8.56681
G1 X137.213 Y117.294 E8.58364
G1 X136.823 Y117.615 E8.60044
G1 X136.387 Y117.871 E8.61725
G1 X135.916 Y118.054 E8.63406
G1 X135.422 Y118.162 E8.65088
G1 X135.081 Y118.19 E8.66226
G1 X134.76 Y118.199 E8.67294
G1 X134.67 Y118.2 E8.67593
G1 X115.666 Y118.2 E9.30801
G1 X114.968 Y118.191 E9.33123
G1 X114.464 Y118.144 E9.34806
G1 X113.974 Y118.019 E9.36488
G1 X113.51 Y117.818 E9.3817
G1 X113.084 Y117.547 E9.39849
G1 X112.705 Y117.212 E9.41532
G1 X112.384 Y116.821 E9.43214
G1 X112.129 Y116.385 E9.44894
G1 X111.945 Y115.914 E9.46576
G1 X111.838 Y115.42 E9.48257
G1 X111.81 Y115.077 E9.49402
G1 X111.801 Y114.744 E9.5051
G1 X111.8 Y114.658 E9.50796
G1 X111.8 Y95.631 E10.1408
G1 X111.809 Y94.966 E10.16292
G1 X111.856 Y94.462 E10.17976
G1 X111.982 Y93.973 E10.19655
G1 X112.183 Y93.509 E10.21337
G1 X112.454 Y93.082 E10.23019
G1 F2100 E9.43019
;MESH:20mmTestCube_repaired.stl
G0 F3600 X114.335 Y95.614
G0 X115.614 Y95.614
G0 X115.67 Y114.33
G0 X115.6 Y114.4
;TYPE:WALL-INNER
G1 F2100 E10.23019
G1 F1800 X115.6 Y95.6 E10.85548
G1 X134.4 Y95.6 E11.48077
G1 X134.4 Y114.4 E12.10606
G1 X115.6 Y114.4 E12.73135
G0 F3600 X115.2 Y114.8
;TYPE:WALL-OUTER
G1 F1800 X115.2 Y95.2 E13.38325
G1 X134.8 Y95.2 E14.03515
G1 X134.8 Y114.8 E14.68705
G1 X115.2 Y114.8 E15.33895
G0 F3600 X115.2 Y114.6
G0 X115.99 Y114.01
;TYPE:SKIN
G1 F1800 X115.99 Y95.99 E15.93829
G1 X134.01 Y95.99 E16.53764
G1 X134.01 Y114.01 E17.13699
G1 X115.99 Y114.01 E17.73634
G0 F3600 X116.658 Y113.83
G1 F1800 X116.169 Y113.34 E17.75936
G0 F3600 X116.169 Y112.775
G1 F1800 X117.224 Y113.83 E17.80899
G0 F3600 X117.789 Y113.83
G1 F1800 X116.169 Y112.209 E17.88521
G0 F3600 X116.169 Y111.643
G1 F1800 X118.355 Y113.83 E17.98806
G0 F3600 X118.921 Y113.83
G1 F1800 X116.169 Y111.077 E18.11752
G0 F3600 X116.169 Y110.512
G1 F1800 X119.486 Y113.83 E18.27357
G0 F3600 X120.052 Y113.83
G1 F1800 X116.169 Y109.946 E18.45624
G0 F3600 X116.169 Y109.38
G1 F1800 X120.618 Y113.83 E18.66553
G0 F3600 X121.183 Y113.83
G1 F1800 X116.169 Y108.815 E18.9014
G0 F3600 X116.169 Y108.249
G1 F1800 X121.749 Y113.83 E19.16388
G0 F3600 X122.315 Y113.83
G1 F1800 X116.169 Y107.683 E19.453
G0 F3600 X116.169 Y107.118
G1 F1800 X122.881 Y113.83 E19.76871
G0 F3600 X123.446 Y113.83
G1 F1800 X116.169 Y106.552 E20.11102
G0 F3600 X116.169 Y105.986
G1 F1800 X124.012 Y113.83 E20.47995
G0 F3600 X124.578 Y113.83
G1 F1800 X116.169 Y105.421 E20.87549
G0 F3600 X116.169 Y104.855
G1 F1800 X125.143 Y113.83 E21.29762
G0 F3600 X125.709 Y113.83
G1 F1800 X116.169 Y104.289 E21.74638
G0 F3600 X116.169 Y103.724
G1 F1800 X126.275 Y113.83 E22.22173
G0 F3600 X126.84 Y113.83
G1 F1800 X116.169 Y103.158 E22.72369
G0 F3600 X116.169 Y102.592
G1 F1800 X127.406 Y113.83 E23.25226
G0 F3600 X127.972 Y113.83
G1 F1800 X116.169 Y102.027 E23.80744
G0 F3600 X116.169 Y101.461
G1 F1800 X128.537 Y113.83 E24.38922
G0 F3600 X129.103 Y113.83
G1 F1800 X116.169 Y100.895 E24.99762
G0 F3600 X116.169 Y100.329
G1 F1800 X129.669 Y113.83 E25.63264
G0 F3600 X130.234 Y113.83
G1 F1800 X116.169 Y99.764 E26.29424
G0 F3600 X116.169 Y99.198
G1 F1800 X130.8 Y113.83 E26.98246
G0 F3600 X131.366 Y113.83
G1 F1800 X116.169 Y98.632 E27.6973
G0 F3600 X116.169 Y98.067
G1 F1800 X131.931 Y113.83 E28.43872
G0 F3600 X132.497 Y113.83
G1 F1800 X116.169 Y97.501 E29.20676
G0 F3600 X116.169 Y96.935
G1 F1800 X133.063 Y113.83 E30.00143
G0 F3600 X133.629 Y113.83
G1 F1800 X116.169 Y96.37 E30.82269
G0 F3600 X116.534 Y96.17
G1 F1800 X133.829 Y113.465 E31.6362
G0 F3600 X133.829 Y112.899
G1 F1800 X117.1 Y96.17 E32.42308
G0 F3600 X117.666 Y96.17
G1 F1800 X133.829 Y112.333 E33.18334
G0 F3600 X133.829 Y111.768
G1 F1800 X118.231 Y96.17 E33.91702
G0 F3600 X118.797 Y96.17
G1 F1800 X133.829 Y111.202 E34.62408
G0 F3600 X133.829 Y110.636
G1 F1800 X119.363 Y96.17 E35.30451
G0 F3600 X119.928 Y96.17
G1 F1800 X133.829 Y110.071 E35.95838
G0 F3600 X133.829 Y109.505
G1 F1800 X120.494 Y96.17 E36.58561
G0 F3600 X121.06 Y96.17
G1 F1800 X133.829 Y108.939 E37.18623
G0 F3600 X133.829 Y108.374
G1 F1800 X121.625 Y96.17 E37.76027
G0 F3600 X122.191 Y96.17
G1 F1800 X133.829 Y107.808 E38.30768
G0 F3600 X133.829 Y107.242
G1 F1800 X122.757 Y96.17 E38.82847
G0 F3600 X123.322 Y96.17
G1 F1800 X133.829 Y106.676 E39.32267
G0 F3600 X133.829 Y106.111
G1 F1800 X123.888 Y96.17 E39.79026
G0 F3600 X124.454 Y96.17
G1 F1800 X133.829 Y105.545 E40.23123
G0 F3600 X133.829 Y104.979
G1 F1800 X125.02 Y96.17 E40.64558
G0 F3600 X125.585 Y96.17
G1 F1800 X133.829 Y104.414 E41.03335
G0 F3600 X133.829 Y103.848
G1 F1800 X126.151 Y96.17 E41.3945
G0 F3600 X126.717 Y96.17
G1 F1800 X133.829 Y103.282 E41.72903
G0 F3600 X133.829 Y102.717
G1 F1800 X127.282 Y96.17 E42.03698
G0 F3600 X127.848 Y96.17
G1 F1800 X133.829 Y102.151 E42.31831
G0 F3600 X133.829 Y101.585
G1 F1800 X128.414 Y96.17 E42.57301
G0 F3600 X128.979 Y96.17
G1 F1800 X133.829 Y101.02 E42.80114
G0 F3600 X133.829 Y100.454
G1 F1800 X129.545 Y96.17 E43.00265
G0 F3600 X130.111 Y96.17
G1 F1800 X133.829 Y99.888 E43.17753
G0 F3600 X133.829 Y99.323
G1 F1800 X130.676 Y96.17 E43.32584
G0 F3600 X131.242 Y96.17
G1 F1800 X133.829 Y98.757 E43.44753
G0 F3600 X133.829 Y98.191
G1 F1800 X131.808 Y96.17 E43.54259
G0 F3600 X132.373 Y96.17
G1 F1800 X133.829 Y97.625 E43.61105
G0 F3600 X133.829 Y97.06
G1 F1800 X132.939 Y96.17 E43.65291
G0 F3600 X133.505 Y96.17
M104 S200
G1 F1800 X133.829 Y96.494 E43.66815
;MESH:NONMESH
G0 F600 X133.829 Y96.494 Z0.4
G0 F3600 X115.67 Y114.33
G0 X115.6 Y114.4
;TIME_ELAPSED:52.826497
;LAYER:1
M140 S60
M106 S255
;TYPE:WALL-INNER
;MESH:20mmTestCube_repaired.stl
G1 F2700 X115.6 Y95.6 E44.29344
G1 X134.4 Y95.6 E44.91873
G1 X134.4 Y114.4 E45.54402
G1 X115.6 Y114.4 E46.16931
G0 F5400 X115.2 Y114.8
;TYPE:WALL-OUTER
G1 F1800 X115.2 Y95.2 E46.82121
G1 X134.8 Y95.2 E47.47311
G1 X134.8 Y114.8 E48.12501
G1 X115.2 Y114.8 E48.77691
G0 F5400 X115.2 Y114.6
G0 X115.99 Y114.01
;TYPE:SKIN
G1 F1800 X115.99 Y95.99 E49.37626
G1 X134.01 Y95.99 E49.9756
G1 X134.01 Y114.01 E50.57495
G1 X115.99 Y114.01 E51.1743
G0 F5400 X116.527 Y96.17
G1 F1800 X116.169 Y96.527 E51.19111
G0 F5400 X116.169 Y97.093
G1 F1800 X117.093 Y96.17 E51.23455
G0 F5400 X117.659 Y96.17
G1 F1800 X116.169 Y97.659 E51.30462
G0 F5400 X116.169 Y98.224
G1 F1800 X118.224 Y96.17 E51.40125
G0 F5400 X118.79 Y96.17
G1 F1800 X116.169 Y98.79 E51.52451
G0 F5400 X116.169 Y99.356
G1 F1800 X119.356 Y96.17 E51.6744
G0 F5400 X119.921 Y96.17
G1 F1800 X116.169 Y99.921 E51.85086
G0 F5400 X116.169 Y100.487
G1 F1800 X120.487 Y96.17 E52.05394
G0 F5400 X121.053 Y96.17
G1 F1800 X116.169 Y101.053 E52.28364
G0 F5400 X116.169 Y101.619
G1 F1800 X121.618 Y96.17 E52.53995
G0 F5400 X122.184 Y96.17
G1 F1800 X116.169 Y102.184 E52.82285
G0 F5400 X116.169 Y102.75
G1 F1800 X122.75 Y96.17 E53.13238
G0 F5400 X123.315 Y96.17
G1 F1800 X116.169 Y103.316 E53.4685
G0 F5400 X116.169 Y103.881
G1 F1800 X123.881 Y96.17 E53.83123
G0 F5400 X124.447 Y96.17
G1 F1800 X116.169 Y104.447 E54.22058
G0 F5400 X116.169 Y105.013
G1 F1800 X125.012 Y96.17 E54.63652
G0 F5400 X125.578 Y96.17
G1 F1800 X116.169 Y105.578 E55.07907
G0 F5400 X116.169 Y106.144
G1 F1800 X126.144 Y96.17 E55.54824
G0 F5400 X126.709 Y96.17
G1 F1800 X116.169 Y106.71 E56.04401
G0 F5400 X116.169 Y107.275
G1 F1800 X127.275 Y96.17 E56.56638
G0 F5400 X127.841 Y96.17
G1 F1800 X116.169 Y107.841 E57.11537
G0 F5400 X116.169 Y108.407
G1 F1800 X128.407 Y96.17 E57.69098
G0 F5400 X128.972 Y96.17
G1 F1800 X116.169 Y108.972 E58.29317
G0 F5400 X116.169 Y109.538
G1 F1800 X129.538 Y96.17 E58.92199
G0 F5400 X130.104 Y96.17
G1 F1800 X116.169 Y110.104 E59.57742
G0 F5400 X116.169 Y110.669
G1 F1800 X130.669 Y96.17 E60.25944
G0 F5400 X131.235 Y96.17
G1 F1800 X116.169 Y111.235 E60.96807
G0 F5400 X116.169 Y111.801
G1 F1800 X131.801 Y96.17 E61.70333
G0 F5400 X132.366 Y96.17
G1 F1800 X116.169 Y112.367 E62.46519
G0 F5400 X116.169 Y112.932
G1 F1800 X132.932 Y96.17 E63.25364
G0 F5400 X133.498 Y96.17
G1 F1800 X116.169 Y113.498 E64.06872
G0 F5400 X116.403 Y113.83
G1 F1800 X133.829 Y96.404 E64.88839
G0 F5400 X133.829 Y96.97
G1 F1800 X116.969 Y113.83 E65.68143
G0 F5400 X117.535 Y113.83
G1 F1800 X133.829 Y97.536 E66.44785
G0 F5400 X133.829 Y98.101
G1 F1800 X118.1 Y113.83 E67.18769
G0 F5400 X118.666 Y113.83
G1 F1800 X133.829 Y98.667 E67.90092
G0 F5400 X133.829 Y99.233
G1 F1800 X119.232 Y113.83 E68.58751
G0 F5400 X119.798 Y113.83
G1 F1800 X133.829 Y99.798 E69.24751
G0 F5400 X133.829 Y100.364
G1 F1800 X120.363 Y113.83 E69.88091
G0 F5400 X120.929 Y113.83
G1 F1800 X133.829 Y100.93 E70.48769
G0 F5400 X133.829 Y101.495
G1 F1800 X121.495 Y113.83 E71.06786
G0 F5400 X122.06 Y113.83
G1 F1800 X133.829 Y102.061 E71.62144
G0 F5400 X133.829 Y102.627
G1 F1800 X122.626 Y113.83 E72.1484
G0 F5400 X123.192 Y113.83
G1 F1800 X133.829 Y103.193 E72.64873
G0 F5400 X133.829 Y103.758
G1 F1800 X123.757 Y113.83 E73.12249
G0 F5400 X124.323 Y113.83
G1 F1800 X133.829 Y104.324 E73.56962
G0 F5400 X133.829 Y104.89
G1 F1800 X124.889 Y113.83 E73.99013
G0 F5400 X125.454 Y113.83
G1 F1800 X133.829 Y105.455 E74.38406
G0 F5400 X133.829 Y106.021
G1 F1800 X126.02 Y113.83 E74.75137
G0 F5400 X126.586 Y113.83
G1 F1800 X133.829 Y106.587 E75.09206
G0 F5400 X133.829 Y107.152
G1 F1800 X127.151 Y113.83 E75.40618
G0 F5400 X127.717 Y113.83
G1 F1800 X133.829 Y107.718 E75.69367
G0 F5400 X133.829 Y108.284
G1 F1800 X128.283 Y113.83 E75.95453
G0 F5400 X128.848 Y113.83
G1 F1800 X133.829 Y108.849 E76.18882
G0 F5400 X133.829 Y109.415
G1 F1800 X129.414 Y113.83 E76.39649
G0 F5400 X129.98 Y113.83
G1 F1800 X133.829 Y109.981 E76.57754
G0 F5400 X133.829 Y110.546
G1 F1800 X130.546 Y113.83 E76.73198
G0 F5400 X131.111 Y113.83
G1 F1800 X133.829 Y111.112 E76.85983
G0 F5400 X133.829 Y111.678
G1 F1800 X131.677 Y113.83 E76.96105
G0 F5400 X132.243 Y113.83
G1 F1800 X133.829 Y112.244 E77.03565
G0 F5400 X133.829 Y112.809
G1 F1800 X132.808 Y113.83 E77.08368
G0 F5400 X133.374 Y113.83
G1 F1800 X133.829 Y113.375 E77.10508
;MESH:NONMESH
G0 F600 X133.829 Y113.375 Z0.6
G0 F5400 X115.67 Y114.33
G0 X115.6 Y114.4
;TIME_ELAPSED:89.840189
;LAYER:2
;TYPE:WALL-INNER
;MESH:20mmTestCube_repaired.stl
G1 F3600 X115.6 Y95.6 E77.73037
G1 X134.4 Y95.6 E78.35566
G1 X134.4 Y114.4 E78.98095
G1 X115.6 Y114.4 E79.60624
G0 F7200 X115.2 Y114.8
;TYPE:WALL-OUTER
G1 F1800 X115.2 Y95.2 E80.25814
G1 X134.8 Y95.2 E80.91004
G1 X134.8 Y114.8 E81.56194
G1 X115.2 Y114.8 E82.21384
G0 F7200 X115.2 Y114.6
G0 X115.99 Y114.01
;TYPE:SKIN
G1 F1800 X115.99 Y95.99 E82.81318
G1 X134.01 Y95.99 E83.41253
G1 X134.01 Y114.01 E84.01188
G1 X115.99 Y114.01 E84.61123
G0 F7200 X116.658 Y113.83
G1 F1800 X116.169 Y113.34 E84.63425
G0 F7200 X116.169 Y112.775
G1 F1800 X117.224 Y113.83 E84.68387
